;FLAVOR:Marlin
;TIME:12142
;Filament used: 8.44837m
;Layer height: 0.2
;MINX:45.541
;MINY:91.152
;MINZ:0.2
;MAXX:161.724
;MAXY:128.616
;MAXZ:50
;TARGET_MACHINE.NAME:Creality Ender-3
;Generated with Cura_SteamEngine 5.7.0
M140 S50
M105
M190 S50
M104 S220
M105
M109 S220
M82 ;absolute extrusion mode
; Ender 3 Custom Start G-code
G92 E0 ; Reset Extruder
G28 ; Home all axes
G1 Z2.0 F3000 ; Move Z Axis up little to prevent scratching of Heat Bed
G1 X0.1 Y20 Z0.3 F5000.0 ; Move to start position
G1 X0.1 Y200.0 Z0.3 F1500.0 E15 ; Draw the first line
G1 X0.4 Y200.0 Z0.3 F5000.0 ; Move to side a little
G1 X0.4 Y20 Z0.3 F1500.0 E30 ; Draw the second line
G92 E0 ; Reset Extruder
G1 Z2.0 F3000 ; Move Z Axis up little to prevent scratching of Heat Bed
G1 X5 Y20 Z0.3 F5000.0 ; Move over to prevent blob squish
G92 E0
G92 E0
G1 F2700 E-5
;LAYER_COUNT:250
;LAYER:0
M107
G0 F6000 X73.565 Y91.727 Z0.2
;TYPE:SKIRT
G1 F2700 E0
G1 F1200 X74.782 Y91.385 E0.04205
G1 X75.999 Y91.727 E0.08409
G1 X76.884 Y92.659 E0.12684
G1 X77.223 Y93.823 E0.16716
G1 X76.95 Y94.796 E0.20077
G1 X76.951 Y94.906 E0.20443
G1 X76.964 Y94.949 E0.20593
G1 X76.657 Y96.051 E0.24397
G1 X75.862 Y96.846 E0.28137
G1 X75.309 Y97 E0.30046
G1 X74.234 Y97 E0.33622
G1 X73.709 Y96.846 E0.35441
G1 X72.865 Y96.002 E0.39411
G1 X72.556 Y94.951 E0.43055
G1 X72.597 Y94.813 E0.43534
G1 X72.597 Y94.701 E0.43906
G1 X72.339 Y93.825 E0.46944
G1 X72.68 Y92.659 E0.50984
G1 X73.565 Y91.727 E0.55259
G0 F6000 X73.779 Y92.082
G1 F1200 X74.782 Y91.801 E0.58723
G1 X75.785 Y92.082 E0.62188
G1 X76.527 Y92.863 E0.65771
G1 X76.807 Y93.825 E0.69103
G1 X76.565 Y94.688 E0.72084
G1 X76.546 Y94.905 E0.72809
G1 X76.552 Y94.938 E0.7292
G1 X76.3 Y95.842 E0.76042
G1 X75.653 Y96.489 E0.79085
G1 X75.256 Y96.6 E0.80456
G1 X74.292 Y96.6 E0.83662
G1 X73.92 Y96.491 E0.84952
G1 X73.22 Y95.791 E0.88244
G1 X72.974 Y94.951 E0.91155
G1 X72.981 Y94.926 E0.91242
G1 X73.003 Y94.709 E0.91967
G1 X72.981 Y94.588 E0.92376
G1 X72.756 Y93.824 E0.95025
G1 X73.037 Y92.863 E0.98355
G1 X73.779 Y92.082 E1.01938
G0 F6000 X73.994 Y92.437
G1 F1200 X74.782 Y92.216 E1.0466
G1 X75.57 Y92.437 E1.07382
G1 X76.17 Y93.069 E1.10281
G1 X76.391 Y93.828 E1.1291
G1 X76.18 Y94.58 E1.15508
G1 X76.143 Y94.86 E1.16447
G1 X76.148 Y94.897 E1.16571
G1 X75.943 Y95.633 E1.19113
G1 X75.444 Y96.132 E1.2146
G1 X75.202 Y96.2 E1.22296
G1 X74.35 Y96.2 E1.2513
G1 X74.131 Y96.136 E1.25888
G1 X73.576 Y95.581 E1.28499
G1 X73.382 Y94.92 E1.3079
G1 X73.405 Y94.76 E1.31328
G1 X73.364 Y94.475 E1.32285
G1 X73.173 Y93.825 E1.34539
G1 X73.394 Y93.069 E1.37159
G1 X73.994 Y92.437 E1.40057
G0 F6000 X74.207 Y92.793
G1 F1200 X74.782 Y92.631 E1.42044
G1 X75.357 Y92.793 E1.44031
G1 X75.813 Y93.274 E1.46235
G1 X75.975 Y93.83 E1.48161
G1 X75.795 Y94.472 E1.50379
G1 X75.744 Y94.802 E1.5149
G1 X75.749 Y94.84 E1.51617
G1 X75.586 Y95.424 E1.53634
G1 X75.234 Y95.776 E1.55289
G1 X75.148 Y95.8 E1.55586
G1 X74.405 Y95.8 E1.58058
G1 X74.343 Y95.782 E1.58272
G1 X73.929 Y95.368 E1.6022
G1 X73.791 Y94.896 E1.61855
G1 X73.803 Y94.822 E1.62105
G1 X73.748 Y94.362 E1.63646
G1 X73.59 Y93.823 E1.65514
G1 X73.751 Y93.273 E1.6742
G1 X74.207 Y92.793 E1.69622
G0 F6000 X74.421 Y93.148
G1 F1200 X74.782 Y93.047 E1.70869
G1 X75.143 Y93.148 E1.72115
G1 X75.456 Y93.478 E1.73628
G1 X75.559 Y93.832 E1.74854
G1 X75.41 Y94.364 E1.76692
G1 X75.347 Y94.738 E1.77953
G1 X75.349 Y94.785 E1.7811
G1 X75.229 Y95.215 E1.79595
G1 X75.044 Y95.4 E1.80465
G1 X74.527 Y95.4 E1.82184
G1 X74.284 Y95.157 E1.83327
G1 X74.199 Y94.867 E1.84333
G1 X74.188 Y94.513 E1.85511
G1 X74.132 Y94.249 E1.86408
G1 X74.007 Y93.823 E1.87885
G1 X74.108 Y93.478 E1.8908
G1 X74.421 Y93.148 E1.90593
G0 F6000 X74.637 Y93.503
G1 F1200 X74.782 Y93.462 E1.91094
G1 X74.927 Y93.503 E1.91596
G1 X75.1 Y93.685 E1.92431
G1 X75.143 Y93.834 E1.92946
G1 X75.025 Y94.256 E1.94404
G1 X74.951 Y94.668 E1.95796
G1 X74.952 Y94.722 E1.95976
G1 X74.874 Y95 E1.96936
G1 X74.693 Y95 E1.97538
G1 X74.64 Y94.947 E1.97787
G1 X74.595 Y94.794 E1.98318
G1 X74.595 Y94.547 E1.99139
G1 X74.516 Y94.136 E2.00531
G1 X74.424 Y93.823 E2.01616
G1 X74.464 Y93.685 E2.02094
G1 X74.637 Y93.503 E2.0293
G1 F2700 E-2.9707
G0 F6000 X65.192 Y97.347
G0 X60.524 Y105.232
G1 F2700 E2.0293
G1 F1200 X62.738 Y107.57 E2.13639
G1 X63.598 Y110.514 E2.2384
G1 X62.737 Y113.588 E2.34458
G1 X60.524 Y115.801 E2.44867
G1 X57.45 Y116.662 E2.55485
G1 X54.508 Y115.802 E2.65679
G1 X52.166 Y113.46 E2.76695
G1 X51.304 Y110.516 E2.86898
G1 X52.166 Y107.57 E2.97108
G1 X54.38 Y105.232 E3.07817
G1 X57.452 Y104.371 E3.18428
G1 X60.524 Y105.232 E3.2904
G0 F6000 X60.309 Y105.587
G1 F1200 X62.381 Y107.775 E3.39062
G1 X63.182 Y110.516 E3.4856
G1 X62.38 Y113.379 E3.58449
G1 X60.315 Y115.444 E3.68162
G1 X57.453 Y116.246 E3.78048
G1 X54.719 Y115.447 E3.87522
G1 X52.521 Y113.249 E3.9786
G1 X51.721 Y110.515 E4.07335
G1 X52.523 Y107.776 E4.16827
G1 X54.595 Y105.587 E4.26852
G1 X57.452 Y104.786 E4.36721
G1 X60.309 Y105.587 E4.4659
G0 F6000 X60.095 Y105.942
G1 F1200 X62.024 Y107.98 E4.55923
G1 X62.766 Y110.52 E4.64724
G1 X62.023 Y113.17 E4.73878
G1 X60.106 Y115.087 E4.82895
G1 X57.456 Y115.83 E4.92049
G1 X54.93 Y115.092 E5.00802
G1 X52.876 Y113.038 E5.10463
G1 X52.138 Y110.516 E5.19203
G1 X52.88 Y107.979 E5.27995
G1 X54.809 Y105.942 E5.37326
G1 X57.452 Y105.202 E5.46454
G1 X60.095 Y105.942 E5.55583
G0 F6000 X59.879 Y106.297
G1 F1200 X61.667 Y108.185 E5.64232
G1 X62.35 Y110.523 E5.72333
G1 X61.667 Y112.96 E5.80751
G1 X59.896 Y114.731 E5.89081
G1 X57.459 Y115.414 E5.97499
G1 X55.14 Y114.736 E6.05535
G1 X53.231 Y112.827 E6.14514
G1 X52.555 Y110.516 E6.22522
G1 X53.237 Y108.185 E6.306
G1 X55.025 Y106.297 E6.39249
G1 X57.452 Y105.617 E6.47632
G1 X59.879 Y106.297 E6.56015
G0 F6000 X59.665 Y106.653
G1 F1200 X61.31 Y108.389 E6.6397
G1 X61.934 Y110.525 E6.71371
G1 X61.31 Y112.751 E6.7906
G1 X59.687 Y114.374 E6.86694
G1 X57.461 Y114.998 E6.94383
G1 X55.351 Y114.381 E7.01695
G1 X53.587 Y112.617 E7.09992
G1 X52.972 Y110.515 E7.17277
G1 X53.594 Y108.389 E7.24644
G1 X55.239 Y106.653 E7.32599
G1 X57.452 Y106.032 E7.40244
G1 X59.665 Y106.653 E7.47888
G0 F6000 X59.452 Y107.008
G1 F1200 X60.953 Y108.593 E7.55149
G1 X61.518 Y110.528 E7.61853
G1 X60.954 Y112.541 E7.68806
G1 X59.477 Y114.018 E7.75754
G1 X57.464 Y114.582 E7.82707
G1 X55.562 Y114.026 E7.89298
G1 X53.941 Y112.405 E7.96922
G1 X53.388 Y110.516 E8.03469
G1 X53.95 Y108.595 E8.10126
G1 X55.452 Y107.008 E8.17394
G1 X57.452 Y106.447 E8.24302
G1 X59.452 Y107.008 E8.31211
G0 F6000 X59.237 Y107.364
G1 F1200 X60.596 Y108.799 E8.37785
G1 X61.101 Y110.529 E8.43779
G1 X60.595 Y112.336 E8.5002
G1 X59.272 Y113.659 E8.56243
G1 X57.465 Y114.165 E8.62484
G1 X55.77 Y113.67 E8.68357
G1 X54.296 Y112.196 E8.75291
G1 X53.805 Y110.516 E8.81112
G1 X54.306 Y108.8 E8.87058
G1 X55.667 Y107.364 E8.93638
G1 X57.452 Y106.864 E8.99804
G1 X59.237 Y107.364 E9.05969
G0 F6000 X59.024 Y107.719
G1 F1200 X60.239 Y109.003 E9.11849
G1 X60.685 Y110.532 E9.17146
G1 X60.239 Y112.126 E9.22651
G1 X59.062 Y113.303 E9.28188
G1 X57.468 Y113.749 E9.33693
G1 X55.981 Y113.315 E9.38845
G1 X54.652 Y111.986 E9.45096
G1 X54.222 Y110.515 E9.50194
G1 X54.663 Y109.005 E9.55426
G1 X55.88 Y107.719 E9.61315
G1 X57.452 Y107.279 E9.66744
G1 X59.024 Y107.719 E9.72173
G0 F6000 X58.808 Y108.074
G1 F1200 X59.882 Y109.209 E9.77371
G1 X60.269 Y110.534 E9.81962
G1 X59.882 Y111.917 E9.86738
G1 X58.853 Y112.946 E9.91578
G1 X57.471 Y113.333 E9.96352
G1 X56.192 Y112.96 E10.00783
G1 X55.007 Y111.775 E10.06357
G1 X54.638 Y110.516 E10.1072
G1 X55.02 Y109.21 E10.15246
G1 X56.096 Y108.074 E10.2045
G1 X57.452 Y107.694 E10.25134
G1 X58.808 Y108.074 E10.29818
G0 F6000 X58.594 Y108.43
G1 F1200 X59.525 Y109.413 E10.34321
G1 X59.854 Y110.537 E10.38217
G1 X59.526 Y111.707 E10.42258
G1 X58.643 Y112.59 E10.46411
G1 X57.472 Y112.918 E10.50456
G1 X56.404 Y112.606 E10.54157
G1 X55.362 Y111.564 E10.59058
G1 X55.055 Y110.516 E10.6269
G1 X55.377 Y109.414 E10.66509
G1 X56.31 Y108.43 E10.71019
G1 X57.452 Y108.11 E10.74963
G1 X58.594 Y108.43 E10.78908
G1 F2700 E5.78908
G0 F6000 X58.932 Y108.109
G0 X65.193 Y115.053
G0 X65.192 Y122.653
G0 X73.329 Y124.077
G1 F2700 E10.78908
G1 F1200 X74.546 Y123.735 E10.83112
G1 X75.763 Y124.077 E10.87317
G1 X76.648 Y125.009 E10.91592
G1 X76.987 Y126.173 E10.95624
G1 X76.646 Y127.394 E10.9984
G1 X75.765 Y128.275 E11.03984
G1 X74.545 Y128.616 E11.08198
G1 X73.38 Y128.275 E11.12235
G1 X72.446 Y127.341 E11.16628
G1 X72.103 Y126.175 E11.20671
G1 X72.444 Y125.009 E11.24711
G1 X73.329 Y124.077 E11.28986
G0 F6000 X73.543 Y124.432
G1 F1200 X74.546 Y124.151 E11.32451
G1 X75.549 Y124.432 E11.35915
G1 X76.291 Y125.213 E11.39498
G1 X76.571 Y126.175 E11.4283
G1 X76.289 Y127.185 E11.46318
G1 X75.556 Y127.918 E11.49766
G1 X74.548 Y128.2 E11.53247
G1 X73.591 Y127.92 E11.56564
G1 X72.801 Y127.13 E11.6028
G1 X72.52 Y126.174 E11.63594
G1 X72.801 Y125.213 E11.66924
G1 X73.543 Y124.432 E11.70507
G0 F6000 X73.758 Y124.787
G1 F1200 X74.546 Y124.566 E11.73229
G1 X75.334 Y124.787 E11.75951
G1 X75.934 Y125.419 E11.7885
G1 X76.155 Y126.179 E11.81482
G1 X75.933 Y126.975 E11.84231
G1 X75.346 Y127.562 E11.86992
G1 X74.551 Y127.784 E11.89737
G1 X73.802 Y127.565 E11.92332
G1 X73.155 Y126.918 E11.95376
G1 X72.937 Y126.175 E11.97951
G1 X73.158 Y125.419 E12.00571
G1 X73.758 Y124.787 E12.03469
G0 F6000 X73.971 Y125.143
G1 F1200 X74.546 Y124.981 E12.05456
G1 X75.121 Y125.143 E12.07443
G1 X75.577 Y125.624 E12.09648
G1 X75.739 Y126.181 E12.11577
G1 X75.576 Y126.766 E12.13597
G1 X75.137 Y127.205 E12.15662
G1 X74.554 Y127.368 E12.17675
G1 X74.013 Y127.21 E12.1955
G1 X73.51 Y126.707 E12.21916
G1 X73.354 Y126.175 E12.2376
G1 X73.515 Y125.623 E12.25672
G1 X73.971 Y125.143 E12.27874
G0 F6000 X74.185 Y125.498
G1 F1200 X74.546 Y125.397 E12.29121
G1 X74.907 Y125.498 E12.30368
G1 X75.22 Y125.828 E12.3188
G1 X75.323 Y126.182 E12.33107
G1 X75.218 Y126.558 E12.34405
G1 X74.929 Y126.847 E12.35764
G1 X74.555 Y126.952 E12.37056
G1 X74.223 Y126.854 E12.38208
G1 X73.865 Y126.496 E12.39892
G1 X73.771 Y126.175 E12.41004
G1 X73.872 Y125.828 E12.42206
G1 X74.185 Y125.498 E12.43719
G0 F6000 X74.401 Y125.853
G1 F1200 X74.546 Y125.812 E12.4422
G1 X74.691 Y125.853 E12.44721
G1 X74.864 Y126.035 E12.45557
G1 X74.907 Y126.185 E12.46076
G1 X74.862 Y126.348 E12.46638
G1 X74.719 Y126.491 E12.47311
G1 X74.557 Y126.536 E12.4787
G1 X74.435 Y126.5 E12.48293
G1 X74.221 Y126.286 E12.49299
G1 X74.188 Y126.173 E12.49691
G1 X74.228 Y126.035 E12.50169
G1 X74.401 Y125.853 E12.51004
G1 F2700 E7.51004
G0 F6000 X130.839 Y126.175
G1 F2700 E12.51004
G1 F1200 X131.15 Y125.119 E12.54665
G1 X131.943 Y124.281 E12.58503
G1 X133.045 Y123.972 E12.62309
G1 X133.989 Y124.237 E12.65571
G1 X134.114 Y124.231 E12.65987
G1 X134.188 Y124.182 E12.66282
G1 X134.288 Y124.077 E12.66764
G1 X135.505 Y123.735 E12.70969
G1 X136.722 Y124.077 E12.75173
G1 X137.607 Y125.009 E12.79448
G1 X137.946 Y126.173 E12.8348
G1 X137.605 Y127.394 E12.87697
G1 X136.724 Y128.275 E12.91841
G1 X135.504 Y128.616 E12.96054
G1 X134.34 Y128.275 E13.00088
G1 X134.219 Y128.155 E13.00655
G1 X134.107 Y128.099 E13.01072
G1 X134.024 Y128.104 E13.01348
G1 X133.043 Y128.379 E13.04737
G1 X131.993 Y128.071 E13.08376
G1 X131.149 Y127.227 E13.12346
G1 X130.839 Y126.175 E13.15994
G0 F6000 X131.257 Y126.175
G1 F1200 X131.506 Y125.325 E13.1894
G1 X132.158 Y124.636 E13.22095
G1 X133.045 Y124.387 E13.25159
G1 X133.881 Y124.622 E13.28047
G1 X134.098 Y124.641 E13.28772
G1 X134.308 Y124.582 E13.29497
G1 X134.478 Y124.458 E13.30197
G1 X134.503 Y124.432 E13.30317
G1 X135.505 Y124.151 E13.33778
G1 X136.508 Y124.432 E13.37243
G1 X137.25 Y125.213 E13.40826
G1 X137.53 Y126.175 E13.44158
G1 X137.248 Y127.185 E13.47646
G1 X136.515 Y127.918 E13.51094
G1 X135.507 Y128.2 E13.54575
G1 X134.55 Y127.92 E13.57892
G1 X134.501 Y127.871 E13.58122
G1 X134.321 Y127.748 E13.58847
G1 X134.109 Y127.698 E13.59572
G1 X133.916 Y127.719 E13.60217
G1 X133.047 Y127.963 E13.63219
G1 X132.204 Y127.716 E13.66141
G1 X131.504 Y127.016 E13.69434
G1 X131.257 Y126.175 E13.72349
G0 F6000 X131.673 Y126.175
G1 F1200 X131.862 Y125.53 E13.74585
G1 X132.372 Y124.992 E13.7705
G1 X133.045 Y124.803 E13.79375
G1 X133.773 Y125.007 E13.8189
G1 X134.053 Y125.044 E13.82829
G1 X134.331 Y125.001 E13.83765
G1 X134.587 Y124.883 E13.84702
G1 X134.694 Y124.794 E13.85165
G1 X135.505 Y124.566 E13.87967
G1 X136.293 Y124.787 E13.90689
G1 X136.893 Y125.419 E13.93588
G1 X137.114 Y126.179 E13.9622
G1 X136.892 Y126.975 E13.98969
G1 X136.305 Y127.562 E14.0173
G1 X135.51 Y127.784 E14.04475
G1 X134.746 Y127.56 E14.07123
G1 X134.557 Y127.419 E14.07907
G1 X134.292 Y127.32 E14.08848
G1 X134.011 Y127.299 E14.09786
G1 X133.808 Y127.334 E14.10471
G1 X133.049 Y127.547 E14.13093
G1 X132.415 Y127.361 E14.1529
G1 X131.858 Y126.804 E14.1791
G1 X131.673 Y126.175 E14.20091
G0 F6000 X132.09 Y126.175
G1 F1200 X132.219 Y125.736 E14.21613
G1 X132.588 Y125.346 E14.23398
G1 X133.045 Y125.218 E14.24977
G1 X133.665 Y125.392 E14.27119
G1 X133.995 Y125.443 E14.28229
G1 X134.328 Y125.415 E14.29341
G1 X134.644 Y125.308 E14.3045
G1 X134.887 Y125.155 E14.31405
G1 X135.505 Y124.981 E14.33541
G1 X136.08 Y125.143 E14.35528
G1 X136.536 Y125.624 E14.37732
G1 X136.698 Y126.181 E14.39662
G1 X136.535 Y126.766 E14.41681
G1 X136.096 Y127.205 E14.43746
G1 X135.513 Y127.368 E14.4576
G1 X134.927 Y127.197 E14.4779
G1 X134.801 Y127.098 E14.48323
G1 X134.497 Y126.961 E14.49432
G1 X134.168 Y126.9 E14.50545
G1 X133.7 Y126.949 E14.5211
G1 X133.053 Y127.13 E14.54345
G1 X132.625 Y127.005 E14.55828
G1 X132.213 Y126.593 E14.57766
G1 X132.09 Y126.175 E14.59215
G0 F6000 X132.507 Y126.174
G1 F1200 X132.576 Y125.94 E14.60026
G1 X132.802 Y125.702 E14.61118
G1 X133.045 Y125.633 E14.61958
G1 X133.557 Y125.777 E14.63727
G1 X133.93 Y125.84 E14.64985
G1 X134.309 Y125.824 E14.66247
G1 X134.676 Y125.729 E14.67508
G1 X135.015 Y125.559 E14.68769
G1 X135.06 Y125.522 E14.68963
G1 X135.505 Y125.397 E14.705
G1 X135.866 Y125.498 E14.71747
G1 X136.179 Y125.828 E14.7326
G1 X136.282 Y126.182 E14.74486
G1 X136.177 Y126.558 E14.75784
G1 X135.888 Y126.847 E14.77144
G1 X135.514 Y126.952 E14.78436
G1 X135.116 Y126.835 E14.79816
G1 X135.051 Y126.783 E14.80092
G1 X134.713 Y126.613 E14.81351
G1 X134.346 Y126.517 E14.82613
G1 X133.967 Y126.5 E14.83874
G1 X133.592 Y126.564 E14.8514
G1 X133.054 Y126.715 E14.86998
G1 X132.838 Y126.652 E14.87747
G1 X132.568 Y126.382 E14.89017
G1 X132.507 Y126.174 E14.89738
G0 F6000 X132.925 Y126.173
G1 F1200 X132.933 Y126.145 E14.89834
G1 X133.017 Y126.057 E14.90239
G1 X133.045 Y126.049 E14.90336
G1 X133.449 Y126.162 E14.91731
G1 X133.51 Y126.173 E14.91937
G1 X133.484 Y126.179 E14.92026
G1 X133.056 Y126.299 E14.93504
G1 X133.049 Y126.297 E14.93529
G1 X132.925 Y126.173 E14.94112
G1 F2700 E9.94112
G0 F6000 X134.601 Y126.165
G1 F2700 E14.94112
G1 F1200 X134.691 Y126.147 E14.94417
G1 X135.077 Y125.986 E14.95808
G1 X135.217 Y125.893 E14.96367
G1 X135.505 Y125.812 E14.97362
G1 X135.65 Y125.853 E14.97864
G1 X135.823 Y126.035 E14.98699
G1 X135.866 Y126.185 E14.99218
G1 X135.821 Y126.348 E14.9978
G1 X135.678 Y126.491 E15.00453
G1 X135.516 Y126.536 E15.01012
G1 X135.311 Y126.476 E15.01722
G1 X135.305 Y126.471 E15.01748
G1 X134.936 Y126.271 E15.03144
G1 X134.601 Y126.165 E15.04313
G1 F2700 E10.04313
G0 F6000 X149.119 Y122.616
G0 X161.724 Y110
G0 X149.119 Y97.383
G0 X134.786 Y96.266
G1 F2700 E15.04313
G1 F1200 X133.622 Y95.925 E15.08347
G1 X133.456 Y95.76 E15.09126
G1 X133.426 Y95.742 E15.09242
G1 X132.561 Y94.877 E15.13311
G1 X132.251 Y93.825 E15.16958
G1 X132.562 Y92.769 E15.2062
G1 X133.374 Y91.911 E15.24549
G1 X133.419 Y91.884 E15.24723
G1 X133.569 Y91.727 E15.25446
G1 X134.787 Y91.385 E15.29653
G1 X136.004 Y91.727 E15.33858
G1 X136.889 Y92.659 E15.38133
G1 X137.228 Y93.823 E15.42165
G1 X136.887 Y95.044 E15.46382
G1 X136.006 Y95.925 E15.50525
G1 X134.786 Y96.266 E15.54739
G0 F6000 X134.789 Y95.85
G1 F1200 X133.831 Y95.57 E15.58058
G1 X133.738 Y95.477 E15.58496
G1 X133.71 Y95.46 E15.58605
G1 X132.916 Y94.666 E15.62339
G1 X132.669 Y93.825 E15.65255
G1 X132.918 Y92.975 E15.68201
G1 X133.665 Y92.186 E15.71814
G1 X133.708 Y92.16 E15.71982
G1 X133.782 Y92.083 E15.72337
G1 X134.787 Y91.8 E15.75809
