;FLAVOR:Marlin
;TIME:12556
;Filament used: 8.68404m
;Layer height: 0.2
;MINX:58.177
;MINY:93.127
;MINZ:0.2
;MAXX:161.724
;MAXY:126.872
;MAXZ:50
;TARGET_MACHINE.NAME:Creality Ender-3
;Generated with Cura_SteamEngine 5.7.0
M140 S50
M105
M190 S50
M104 S220
M105
M109 S220
M82 ;absolute extrusion mode
; Ender 3 Custom Start G-code
G92 E0 ; Reset Extruder
G28 ; Home all axes
G1 Z2.0 F3000 ; Move Z Axis up little to prevent scratching of Heat Bed
G1 X0.1 Y20 Z0.3 F5000.0 ; Move to start position
G1 X0.1 Y200.0 Z0.3 F1500.0 E15 ; Draw the first line
G1 X0.4 Y200.0 Z0.3 F5000.0 ; Move to side a little
G1 X0.4 Y20 Z0.3 F1500.0 E30 ; Draw the second line
G92 E0 ; Reset Extruder
G1 Z2.0 F3000 ; Move Z Axis up little to prevent scratching of Heat Bed
G1 X5 Y20 Z0.3 F5000.0 ; Move over to prevent blob squish
G92 E0
G92 E0
G1 F2700 E-5
;LAYER_COUNT:250
;LAYER:0
M107
G0 F6000 X62.045 Y97.2 Z0.2
;TYPE:SKIRT
G1 F2700 E0
G1 F1200 X64.542 Y97.2 E0.08305
G1 X64.542 Y97.856 E0.10487
G1 X64.47 Y97.995 E0.11008
G1 X64.445 Y99.008 E0.14378
G1 X64.445 Y99.013 E0.14394
G1 X64.461 Y108.103 E0.44628
G1 X64.314 Y108.327 E0.45519
G1 X64.305 Y108.341 E0.45574
G1 X64.024 Y108.857 E0.47529
G1 X64.009 Y108.894 E0.47661
G1 X63.88 Y109.311 E0.49113
G1 X63.874 Y109.335 E0.49196
G1 X63.808 Y109.711 E0.50465
G1 X63.805 Y109.742 E0.50569
G1 X63.798 Y110.096 E0.51746
G1 X63.799 Y110.121 E0.5183
G1 X63.845 Y110.559 E0.53295
G1 X63.852 Y110.593 E0.5341
G1 X63.975 Y111.019 E0.54885
G1 X63.985 Y111.046 E0.5498
G1 X64.133 Y111.374 E0.56177
G1 X64.142 Y111.392 E0.56244
G1 X64.293 Y111.653 E0.57247
G1 X64.298 Y111.661 E0.57279
G1 X64.467 Y111.925 E0.58321
G1 X64.484 Y122 E0.91831
G1 X64.523 Y122.119 E0.92247
G1 X64.541 Y122.128 E0.92314
G1 X64.541 Y122.8 E0.94549
G1 X62.042 Y122.8 E1.02861
G1 X61.919 Y115.891 E1.25844
G1 X61.918 Y115.88 E1.25881
G1 X61.808 Y114.418 E1.30757
G1 X61.807 Y114.408 E1.30791
G1 X61.754 Y113.994 E1.32179
G1 X61.752 Y113.98 E1.32226
G1 X61.662 Y113.522 E1.33778
G1 X61.659 Y113.507 E1.33829
G1 X61.561 Y113.158 E1.35035
G1 X61.557 Y113.145 E1.3508
G1 X61.424 Y112.769 E1.36407
G1 X61.42 Y112.759 E1.36442
G1 X60.978 Y111.7 E1.40259
G1 X60.999 Y111.7 E1.40329
G1 X61.118 Y111.661 E1.40745
G1 X61.181 Y111.582 E1.41082
G1 X61.407 Y111.079 E1.42916
G1 X61.418 Y111.049 E1.43022
G1 X61.518 Y110.679 E1.44297
G1 X61.523 Y110.658 E1.44369
G1 X61.574 Y110.328 E1.45479
G1 X61.576 Y110.306 E1.45553
G1 X61.59 Y109.986 E1.46618
G1 X61.589 Y109.961 E1.46701
G1 X61.558 Y109.584 E1.47959
G1 X61.556 Y109.564 E1.48026
G1 X61.501 Y109.266 E1.49034
G1 X61.495 Y109.244 E1.4911
G1 X61.371 Y108.838 E1.50522
G1 X61.362 Y108.812 E1.50613
G1 X61.18 Y108.416 E1.52063
G1 X61.095 Y108.325 E1.52477
G1 X60.998 Y108.3 E1.5281
G1 X60.962 Y108.3 E1.5293
G1 X61.313 Y107.517 E1.55784
G1 X61.317 Y107.505 E1.55826
G1 X61.54 Y106.906 E1.57952
G1 X61.545 Y106.893 E1.57998
G1 X61.634 Y106.591 E1.59045
G1 X61.637 Y106.58 E1.59083
G1 X61.779 Y105.983 E1.61124
G1 X61.781 Y105.971 E1.61165
G1 X61.92 Y105.17 E1.63869
G1 X61.923 Y105.144 E1.63956
G1 X62.044 Y101.94 E1.7462
G1 X62.044 Y101.932 E1.74647
G1 X62.045 Y97.2 E1.90385
G0 F6000 X62.445 Y97.6
G1 F1200 X64.142 Y97.6 E1.96029
G1 X64.142 Y97.718 E1.96422
G1 X64.136 Y97.726 E1.96455
G1 X64.07 Y97.985 E1.97344
G1 X64.045 Y98.998 E2.00714
G1 X64.045 Y99.014 E2.00768
G1 X64.061 Y107.983 E2.30599
G1 X63.979 Y108.108 E2.31096
G1 X63.954 Y108.15 E2.31259
G1 X63.673 Y108.666 E2.33213
G1 X63.627 Y108.776 E2.33609
G1 X63.498 Y109.193 E2.35061
G1 X63.48 Y109.266 E2.35311
G1 X63.414 Y109.642 E2.36581
G1 X63.405 Y109.734 E2.36888
G1 X63.398 Y110.088 E2.38066
G1 X63.401 Y110.163 E2.38316
G1 X63.447 Y110.601 E2.3978
G1 X63.468 Y110.704 E2.4013
G1 X63.591 Y111.13 E2.41605
G1 X63.62 Y111.211 E2.41891
G1 X63.768 Y111.539 E2.43088
G1 X63.796 Y111.592 E2.43287
G1 X63.947 Y111.853 E2.4429
G1 X63.961 Y111.876 E2.4438
G1 X64.067 Y112.042 E2.45035
G1 X64.084 Y122.001 E2.78158
G1 X64.124 Y122.215 E2.78883
G1 X64.141 Y122.243 E2.78992
G1 X64.141 Y122.4 E2.79514
G1 X62.435 Y122.4 E2.85188
G1 X62.319 Y115.884 E3.06864
G1 X62.317 Y115.85 E3.06977
G1 X62.207 Y114.388 E3.11853
G1 X62.204 Y114.357 E3.11957
G1 X62.151 Y113.943 E3.13345
G1 X62.145 Y113.903 E3.1348
G1 X62.055 Y113.445 E3.15032
G1 X62.044 Y113.399 E3.15189
G1 X61.946 Y113.05 E3.16395
G1 X61.934 Y113.012 E3.16528
G1 X61.801 Y112.636 E3.17854
G1 X61.789 Y112.605 E3.17965
G1 X61.473 Y111.847 E3.20696
G1 X61.546 Y111.746 E3.21111
G1 X61.772 Y111.243 E3.22945
G1 X61.804 Y111.154 E3.23259
G1 X61.904 Y110.784 E3.24534
G1 X61.918 Y110.719 E3.24755
G1 X61.969 Y110.389 E3.25866
G1 X61.975 Y110.323 E3.26086
G1 X61.989 Y110.003 E3.27152
G1 X61.988 Y109.928 E3.27401
G1 X61.957 Y109.551 E3.28659
G1 X61.949 Y109.491 E3.2886
G1 X61.894 Y109.193 E3.29868
G1 X61.878 Y109.127 E3.30094
G1 X61.754 Y108.721 E3.31506
G1 X61.725 Y108.645 E3.31777
G1 X61.543 Y108.249 E3.33226
G1 X61.47 Y108.145 E3.33649
G1 X61.678 Y107.68 E3.35343
G1 X61.692 Y107.644 E3.35472
G1 X61.915 Y107.045 E3.37598
G1 X61.929 Y107.006 E3.37735
G1 X62.018 Y106.704 E3.38783
G1 X62.026 Y106.673 E3.38889
G1 X62.168 Y106.076 E3.4093
G1 X62.175 Y106.04 E3.41052
G1 X62.314 Y105.239 E3.43756
G1 X62.323 Y105.159 E3.44024
G1 X62.444 Y101.955 E3.54688
G1 X62.444 Y101.932 E3.54764
G1 X62.445 Y97.6 E3.69173
G0 F6000 X62.845 Y98
G1 F1200 X63.669 Y98 E3.71913
G1 X63.645 Y98.988 E3.752
G1 X63.645 Y99.015 E3.7529
G1 X63.66 Y107.864 E4.04722
G1 X63.644 Y107.889 E4.04821
G1 X63.603 Y107.959 E4.05091
G1 X63.322 Y108.475 E4.07045
G1 X63.245 Y108.657 E4.07702
G1 X63.116 Y109.074 E4.09154
G1 X63.086 Y109.197 E4.09575
G1 X63.02 Y109.573 E4.10845
G1 X63.005 Y109.726 E4.11356
G1 X62.998 Y110.08 E4.12534
G1 X63.003 Y110.204 E4.12946
G1 X63.049 Y110.642 E4.14411
G1 X63.083 Y110.815 E4.14998
G1 X63.206 Y111.241 E4.16472
G1 X63.255 Y111.375 E4.16947
G1 X63.403 Y111.703 E4.18144
G1 X63.449 Y111.793 E4.1848
G1 X63.6 Y112.054 E4.19483
G1 X63.624 Y112.092 E4.19632
G1 X63.667 Y112.16 E4.199
G1 X63.684 Y122 E4.52628
G1 X62.828 Y122 E4.55475
G1 X62.719 Y115.877 E4.75843
G1 X62.716 Y115.82 E4.76033
G1 X62.606 Y114.358 E4.8091
G1 X62.601 Y114.306 E4.81083
G1 X62.548 Y113.892 E4.82472
G1 X62.537 Y113.826 E4.82694
G1 X62.447 Y113.368 E4.84247
G1 X62.429 Y113.291 E4.8451
G1 X62.331 Y112.942 E4.85715
G1 X62.311 Y112.879 E4.85935
G1 X62.178 Y112.503 E4.87262
G1 X62.158 Y112.451 E4.87447
G1 X61.922 Y111.885 E4.89487
G1 X62.137 Y111.407 E4.9123
G1 X62.19 Y111.258 E4.91756
G1 X62.29 Y110.888 E4.93031
G1 X62.313 Y110.78 E4.93398
G1 X62.364 Y110.45 E4.94508
G1 X62.375 Y110.341 E4.94873
G1 X62.389 Y110.021 E4.95938
G1 X62.387 Y109.895 E4.96357
G1 X62.356 Y109.518 E4.97615
G1 X62.342 Y109.419 E4.97948
G1 X62.287 Y109.121 E4.98956
G1 X62.26 Y109.01 E4.99336
G1 X62.136 Y108.604 E5.00748
G1 X62.089 Y108.478 E5.01195
G1 X61.922 Y108.114 E5.02527
G1 X62.043 Y107.844 E5.03511
G1 X62.067 Y107.784 E5.03726
G1 X62.29 Y107.185 E5.05852
G1 X62.312 Y107.119 E5.06083
G1 X62.401 Y106.817 E5.07131
G1 X62.415 Y106.765 E5.0731
G1 X62.557 Y106.168 E5.09351
G1 X62.569 Y106.108 E5.09554
G1 X62.708 Y105.307 E5.12258
G1 X62.722 Y105.174 E5.12703
G1 X62.843 Y101.97 E5.23367
G1 X62.844 Y101.932 E5.23494
G1 X62.845 Y98 E5.36571
G0 F6000 X63.245 Y98.4
G1 F1200 X63.259 Y98.4 E5.36618
G1 X63.245 Y98.978 E5.38541
G1 X63.245 Y98.4 E5.40463
G0 F6000 X63.245 Y99.015
G1 F1200 X63.26 Y107.752 E5.69523
G1 X63.251 Y107.767 E5.69581
G1 X62.97 Y108.283 E5.71535
G1 X62.863 Y108.539 E5.72458
G1 X62.734 Y108.956 E5.7391
G1 X62.694 Y109.119 E5.74468
G1 X62.681 Y109.048 E5.74708
G1 X62.643 Y108.893 E5.75239
G1 X62.519 Y108.487 E5.76651
G1 X62.452 Y108.311 E5.77277
G1 X62.361 Y108.112 E5.78005
G1 X62.408 Y108.007 E5.78388
G1 X62.442 Y107.923 E5.78689
G1 X62.665 Y107.324 E5.80815
G1 X62.696 Y107.232 E5.81138
G1 X62.785 Y106.93 E5.82185
G1 X62.804 Y106.858 E5.82433
G1 X62.946 Y106.261 E5.84474
G1 X62.963 Y106.176 E5.84762
G1 X63.102 Y105.375 E5.87466
G1 X63.122 Y105.189 E5.88088
G1 X63.243 Y101.985 E5.98752
G1 X63.244 Y101.932 E5.98929
G1 X63.245 Y99.015 E6.08631
G1 F2700 E1.08631
G0 F6000 X65.192 Y97.347
G0 X71.577 Y96.8
G1 F2700 E6.08631
G1 F1200 X71.577 Y96.48 E6.09695
G1 X71.663 Y96.452 E6.09996
G1 X71.724 Y96.378 E6.10315
G1 X71.888 Y96.039 E6.11567
G1 X71.894 Y96.027 E6.11612
G1 X72.045 Y95.652 E6.12956
G1 X72.053 Y95.625 E6.1305
G1 X72.144 Y95.253 E6.14324
G1 X72.147 Y95.237 E6.14378
G1 X72.195 Y94.94 E6.15379
G1 X72.197 Y94.93 E6.15413
G1 X72.237 Y94.567 E6.16627
G1 X72.811 Y93.993 E6.19327
G1 X76.878 Y93.992 E6.32854
G1 X77.445 Y94.559 E6.35521
G1 X77.445 Y94.713 E6.36033
G1 X77.448 Y94.749 E6.36153
G1 X77.547 Y95.289 E6.37979
G1 X77.552 Y95.31 E6.38051
G1 X77.669 Y95.705 E6.39421
G1 X77.675 Y95.722 E6.39481
G1 X77.786 Y96.001 E6.4048
G1 X77.793 Y96.016 E6.40535
G1 X77.976 Y96.382 E6.41896
G1 X78.064 Y96.471 E6.42312
G1 X78.112 Y96.483 E6.42477
G1 X78.112 Y96.8 E6.43531
G1 X77.993 Y96.839 E6.43948
G1 X77.912 Y97 E6.44547
G1 X71.777 Y97 E6.64952
G1 X71.738 Y96.881 E6.65369
G1 X71.577 Y96.8 E6.65968
G0 F6000 X72.048 Y96.6
G1 F1200 X72.084 Y96.552 E6.66168
G1 X72.248 Y96.213 E6.6742
G1 X72.265 Y96.176 E6.67556
G1 X72.416 Y95.801 E6.689
G1 X72.442 Y95.72 E6.69183
G1 X72.533 Y95.348 E6.70457
G1 X72.542 Y95.301 E6.70616
G1 X72.59 Y95.004 E6.71617
G1 X72.594 Y94.974 E6.71718
G1 X72.619 Y94.751 E6.72464
G1 X72.977 Y94.393 E6.74148
G1 X76.712 Y94.392 E6.8657
G1 X77.046 Y94.726 E6.88141
G1 X77.055 Y94.821 E6.88459
G1 X77.154 Y95.361 E6.90285
G1 X77.169 Y95.423 E6.90497
G1 X77.286 Y95.818 E6.91867
G1 X77.304 Y95.87 E6.9205
G1 X77.415 Y96.149 E6.93049
G1 X77.435 Y96.195 E6.93216
G1 X77.618 Y96.561 E6.94577
G1 X77.648 Y96.6 E6.9474
G1 X72.048 Y96.6 E7.13366
G0 F6000 X72.687 Y96.2
G1 F1200 X72.787 Y95.951 E7.14259
G1 X72.83 Y95.815 E7.14733
G1 X72.921 Y95.443 E7.16007
G1 X72.937 Y95.365 E7.16272
G1 X72.985 Y95.068 E7.17272
G1 X72.992 Y95.018 E7.1744
G1 X73.001 Y94.935 E7.17718
G1 X73.143 Y94.793 E7.18386
G1 X76.546 Y94.792 E7.29704
G1 X76.664 Y94.91 E7.30259
G1 X76.76 Y95.433 E7.32028
G1 X76.785 Y95.537 E7.32384
G1 X76.902 Y95.932 E7.33754
G1 X76.932 Y96.018 E7.34057
G1 X77.004 Y96.2 E7.34708
G1 X72.687 Y96.2 E7.49066
G0 F6000 X73.246 Y95.8
G1 F1200 X73.31 Y95.538 E7.49963
G1 X73.332 Y95.428 E7.50336
G1 X73.37 Y95.193 E7.51128
G1 X76.31 Y95.192 E7.60906
G1 X76.367 Y95.505 E7.61965
G1 X76.402 Y95.651 E7.62464
G1 X76.446 Y95.8 E7.62981
G1 X73.246 Y95.8 E7.73624
G1 F2700 E2.73624
G0 F6000 X65.192 Y97.347
G0 X62.695 Y110.906
G1 F2700 E7.73624
G1 F1200 X62.699 Y110.926 E7.73692
G1 X62.822 Y111.352 E7.75167
G1 X62.891 Y111.54 E7.75833
G1 X63.039 Y111.868 E7.77029
G1 X63.103 Y111.993 E7.77497
G1 X63.254 Y112.254 E7.78499
G1 X63.268 Y112.276 E7.78586
G1 X63.283 Y121.6 E8.09598
G1 X63.221 Y121.6 E8.09804
G1 X63.119 Y115.87 E8.28865
G1 X63.115 Y115.79 E8.29132
G1 X63.005 Y114.328 E8.34008
G1 X62.998 Y114.255 E8.34252
G1 X62.945 Y113.841 E8.3564
G1 X62.93 Y113.749 E8.3595
G1 X62.84 Y113.291 E8.37503
G1 X62.814 Y113.183 E8.37872
G1 X62.716 Y112.834 E8.39078
G1 X62.688 Y112.745 E8.39388
G1 X62.555 Y112.369 E8.40715
G1 X62.527 Y112.297 E8.40972
G1 X62.358 Y111.892 E8.42431
G1 X62.502 Y111.571 E8.43601
G1 X62.577 Y111.362 E8.4434
G1 X62.677 Y110.992 E8.45615
G1 X62.695 Y110.906 E8.45907
G1 F2700 E3.45907
G0 F6000 X65.192 Y122.653
G0 X71.778 Y123
G1 F2700 E8.45907
G1 F1200 X77.912 Y123 E8.66309
G1 X77.951 Y123.119 E8.66725
G1 X78.112 Y123.2 E8.67325
G1 X78.112 Y123.526 E8.68409
G1 X78.045 Y123.548 E8.68643
G1 X77.985 Y123.619 E8.68953
G1 X77.815 Y123.956 E8.70208
G1 X77.81 Y123.967 E8.70248
G1 X77.712 Y124.194 E8.71071
G1 X77.706 Y124.21 E8.71127
G1 X77.583 Y124.578 E8.72418
G1 X77.577 Y124.603 E8.72503
G1 X77.491 Y125.044 E8.73998
G1 X77.489 Y125.057 E8.74042
G1 X77.44 Y125.446 E8.75346
G1 X76.879 Y126.007 E8.77984
G1 X72.812 Y126.008 E8.91511
G1 X72.253 Y125.449 E8.94141
G1 X72.206 Y125.04 E8.9551
G1 X72.204 Y125.026 E8.95557
G1 X72.153 Y124.755 E8.96474
G1 X72.148 Y124.737 E8.96536
G1 X72.072 Y124.47 E8.9746
G1 X72.069 Y124.459 E8.97498
G1 X71.959 Y124.143 E8.9861
G1 X71.955 Y124.134 E8.98643
G1 X71.841 Y123.853 E8.99652
G1 X71.833 Y123.835 E8.99717
G1 X71.717 Y123.614 E9.00547
G1 X71.627 Y123.527 E9.00964
G1 X71.578 Y123.516 E9.01131
G1 X71.578 Y123.2 E9.02182
G1 X71.697 Y123.161 E9.02598
G1 X71.778 Y123 E9.03198
G0 F6000 X72.049 Y123.4
G1 F1200 X77.658 Y123.4 E9.21853
G1 X77.628 Y123.439 E9.22017
G1 X77.458 Y123.776 E9.23272
G1 X77.443 Y123.808 E9.2339
G1 X77.345 Y124.035 E9.24212
G1 X77.327 Y124.083 E9.24383
G1 X77.204 Y124.451 E9.25673
G1 X77.184 Y124.526 E9.25932
G1 X77.098 Y124.967 E9.27426
G1 X77.092 Y125.006 E9.27557
G1 X77.06 Y125.26 E9.28409
G1 X76.713 Y125.607 E9.30041
G1 X72.978 Y125.608 E9.42464
G1 X72.634 Y125.264 E9.44082
G1 X72.603 Y124.994 E9.44985
G1 X72.597 Y124.952 E9.45127
G1 X72.546 Y124.681 E9.46044
G1 X72.533 Y124.628 E9.46225
G1 X72.457 Y124.361 E9.47149
G1 X72.447 Y124.328 E9.47263
G1 X72.337 Y124.012 E9.48376
G1 X72.326 Y123.983 E9.48479
G1 X72.212 Y123.702 E9.49488
G1 X72.187 Y123.649 E9.49683
G1 X72.071 Y123.428 E9.50513
G1 X72.049 Y123.4 E9.50631
G0 F6000 X72.684 Y123.8
G1 F1200 X77.011 Y123.8 E9.65023
G1 X76.978 Y123.877 E9.65302
G1 X76.948 Y123.956 E9.65583
G1 X76.825 Y124.324 E9.66873
G1 X76.791 Y124.45 E9.67307
G1 X76.705 Y124.891 E9.68802
G1 X76.695 Y124.956 E9.69021
G1 X76.68 Y125.074 E9.69416
G1 X76.547 Y125.207 E9.70042
G1 X73.144 Y125.208 E9.8136
G1 X73.015 Y125.079 E9.81967
G1 X73 Y124.948 E9.82405
G1 X72.99 Y124.878 E9.82641
G1 X72.939 Y124.607 E9.83558
G1 X72.918 Y124.518 E9.83862
G1 X72.842 Y124.251 E9.84785
G1 X72.824 Y124.196 E9.84978
G1 X72.714 Y123.88 E9.86091
G1 X72.697 Y123.833 E9.86257
G1 X72.684 Y123.8 E9.86375
G0 F6000 X73.244 Y124.2
G1 F1200 X76.444 Y124.2 E9.97018
G1 X76.399 Y124.373 E9.97613
G1 X76.314 Y124.807 E9.99084
G1 X73.384 Y124.808 E10.08829
G1 X73.332 Y124.533 E10.0976
G1 X73.303 Y124.409 E10.10183
G1 X73.244 Y124.2 E10.10906
G1 F2700 E5.10906
G0 F6000 X131.578 Y123.516
G1 F2700 E10.10906
G1 F1200 X131.578 Y123.2 E10.11957
G1 X131.697 Y123.161 E10.12373
G1 X131.778 Y123 E10.12972
G1 X137.912 Y123 E10.33374
G1 X137.951 Y123.119 E10.33791
G1 X138.112 Y123.2 E10.3439
G1 X138.112 Y123.526 E10.35474
G1 X138.045 Y123.548 E10.35709
G1 X137.985 Y123.619 E10.36018
G1 X137.815 Y123.956 E10.37274
G1 X137.81 Y123.967 E10.37314
G1 X137.712 Y124.194 E10.38136
G1 X137.706 Y124.21 E10.38193
G1 X137.583 Y124.578 E10.39484
G1 X137.577 Y124.603 E10.39569
G1 X137.491 Y125.044 E10.41063
G1 X137.489 Y125.057 E10.41107
G1 X137.44 Y125.446 E10.42411
G1 X136.879 Y126.007 E10.4505
G1 X132.812 Y126.008 E10.58577
G1 X132.253 Y125.449 E10.61206
G1 X132.206 Y125.04 E10.62576
G1 X132.204 Y125.026 E10.62623
G1 X132.153 Y124.755 E10.6354
G1 X132.148 Y124.737 E10.63602
G1 X132.072 Y124.47 E10.64525
G1 X132.069 Y124.459 E10.64563
G1 X131.959 Y124.143 E10.65676
G1 X131.955 Y124.134 E10.65709
G1 X131.841 Y123.853 E10.66717
G1 X131.833 Y123.835 E10.66783
G1 X131.717 Y123.614 E10.67613
G1 X131.627 Y123.527 E10.68029
G1 X131.578 Y123.516 E10.68196
G0 F6000 X132.049 Y123.4
G1 F1200 X137.658 Y123.4 E10.86852
G1 X137.628 Y123.439 E10.87016
G1 X137.458 Y123.776 E10.88271
G1 X137.443 Y123.808 E10.88389
G1 X137.345 Y124.035 E10.89211
G1 X137.327 Y124.083 E10.89381
G1 X137.204 Y124.451 E10.90672
G1 X137.184 Y124.526 E10.9093
G1 X137.098 Y124.967 E10.92425
G1 X137.092 Y125.006 E10.92556
G1 X137.06 Y125.26 E10.93407
G1 X136.713 Y125.607 E10.95039
G1 X132.978 Y125.608 E11.07462
G1 X132.634 Y125.264 E11.0908
G1 X132.603 Y124.994 E11.09984
G1 X132.597 Y124.952 E11.10125
G1 X132.546 Y124.681 E11.11042
G1 X132.533 Y124.628 E11.11224
G1 X132.457 Y124.361 E11.12147
G1 X132.447 Y124.328 E11.12262
G1 X132.337 Y124.012 E11.13375
G1 X132.326 Y123.983 E11.13478
G1 X132.212 Y123.702 E11.14487
G1 X132.187 Y123.649 E11.14681
G1 X132.071 Y123.428 E11.15512
G1 X132.049 Y123.4 E11.1563
G0 F6000 X132.684 Y123.8
G1 F1200 X137.011 Y123.8 E11.30022
G1 X136.978 Y123.877 E11.303
G1 X136.948 Y123.956 E11.30581
G1 X136.825 Y124.324 E11.31872
G1 X136.791 Y124.45 E11.32306
G1 X136.705 Y124.891 E11.338
G1 X136.695 Y124.956 E11.34019
