;FLAVOR:Marlin
;TIME:2362
;Filament used: 1.1542m
;Layer height: 0.2
;MINX:69.216
;MINY:98.334
;MINZ:0.2
;MAXX:151.648
;MAXY:121.666
;MAXZ:9
;TARGET_MACHINE.NAME:Creality Ender-3
;Generated with Cura_SteamEngine 5.7.0
M140 S50
M105
M190 S50
M104 S220
M105
M109 S220
M82 ;absolute extrusion mode
; Ender 3 Custom Start G-code
G92 E0 ; Reset Extruder
G28 ; Home all axes
G1 Z2.0 F3000 ; Move Z Axis up little to prevent scratching of Heat Bed
G1 X0.1 Y20 Z0.3 F5000.0 ; Move to start position
G1 X0.1 Y200.0 Z0.3 F1500.0 E15 ; Draw the first line
G1 X0.4 Y200.0 Z0.3 F5000.0 ; Move to side a little
G1 X0.4 Y20 Z0.3 F1500.0 E30 ; Draw the second line
G92 E0 ; Reset Extruder
G1 Z2.0 F3000 ; Move Z Axis up little to prevent scratching of Heat Bed
G1 X5 Y20 Z0.3 F5000.0 ; Move over to prevent blob squish
G92 E0
G92 E0
G1 F2700 E-5
;LAYER_COUNT:45
;LAYER:0
M107
G0 F6000 X90.089 Y116.054 Z0.2
;TYPE:SKIRT
G1 F2700 E0
G1 F1200 X129.91 Y116.052 E1.32445
G1 X130.242 Y116.603 E1.34585
G1 X130.254 Y116.621 E1.34657
G1 X131.014 Y117.622 E1.38837
G1 X131.028 Y117.639 E1.3891
G1 X131.892 Y118.55 E1.43086
G1 X131.908 Y118.564 E1.43157
G1 X132.86 Y119.372 E1.4731
G1 X132.877 Y119.386 E1.47383
G1 X133.553 Y119.843 E1.50097
G1 X133.488 Y120.055 E1.50835
G1 X86.509 Y120.057 E3.07087
G1 X86.444 Y119.845 E3.07825
G1 X87.123 Y119.386 E3.10551
G1 X87.14 Y119.372 E3.10624
G1 X88.092 Y118.564 E3.14777
G1 X88.108 Y118.55 E3.14848
G1 X88.972 Y117.639 E3.19024
G1 X88.986 Y117.622 E3.19097
G1 X89.746 Y116.621 E3.23277
G1 X89.758 Y116.603 E3.23349
G1 X90.089 Y116.054 E3.25482
G0 F6000 X90.315 Y116.454
G1 F1200 X129.684 Y116.452 E4.56423
G1 X129.899 Y116.809 E4.57809
G1 X129.935 Y116.863 E4.58025
G1 X130.695 Y117.864 E4.62206
G1 X130.738 Y117.914 E4.62425
G1 X131.602 Y118.825 E4.66601
G1 X131.649 Y118.869 E4.66815
G1 X132.575 Y119.655 E4.70855
G1 X87.423 Y119.657 E6.21031
G1 X88.351 Y118.869 E6.2508
G1 X88.398 Y118.825 E6.25294
G1 X89.262 Y117.914 E6.2947
G1 X89.305 Y117.864 E6.2969
G1 X90.065 Y116.863 E6.3387
G1 X90.101 Y116.81 E6.34083
G1 X90.315 Y116.454 E6.35464
G0 F6000 X90.542 Y116.854
G1 F1200 X129.457 Y116.852 E7.64896
G1 X129.556 Y117.016 E7.65533
G1 X129.617 Y117.105 E7.65892
G1 X130.377 Y118.106 E7.70073
G1 X130.447 Y118.189 E7.70434
G1 X131.311 Y119.1 E7.7461
G1 X131.39 Y119.174 E7.7497
G1 X131.486 Y119.255 E7.75387
G1 X88.512 Y119.257 E9.1832
G1 X88.61 Y119.174 E9.18747
G1 X88.689 Y119.1 E9.19107
G1 X89.553 Y118.189 E9.23283
G1 X89.623 Y118.106 E9.23644
G1 X90.383 Y117.105 E9.27824
G1 X90.444 Y117.016 E9.28183
G1 X90.542 Y116.854 E9.28813
G0 F6000 X90.765 Y117.254
G1 F1200 X129.233 Y117.252 E10.56758
G1 X129.298 Y117.347 E10.57141
G1 X130.058 Y118.348 E10.61321
G1 X130.157 Y118.464 E10.61828
G1 X130.528 Y118.855 E10.63621
G1 X89.47 Y118.857 E12.0018
G1 X89.843 Y118.464 E12.01982
G1 X89.942 Y118.348 E12.0249
G1 X90.702 Y117.347 E12.0667
G1 X90.765 Y117.254 E12.07043
G0 F6000 X90.971 Y117.654
G1 F1200 X129.028 Y117.652 E13.33621
G1 X129.637 Y118.455 E13.36973
G1 X90.361 Y118.457 E14.67606
G1 X90.971 Y117.654 E14.7096
G0 F6000 X91.169 Y118.054
G1 F1200 X128.83 Y118.052 E15.96221
G1 X91.167 Y118.057 E17.21489
G1 F2700 E12.21489
;MESH:Train Wheels (2).stl
G0 F6000 X88.76 Y117.364
G0 X87.898 Y116.709
G0 X86.834 Y116.874
;TYPE:WALL-INNER
G1 F2700 E17.21489
G1 F932 X86.621 Y117.129 E17.22911
G1 F1027.8 X86.428 Y117.316 E17.23955
G1 F1052.6 X85.903 Y117.754 E17.26547
G1 F1050.3 X85.258 Y118.197 E17.29521
G1 F1043.5 X85.013 Y118.353 E17.30632
G1 F1050.3 X84.55 Y118.614 E17.32651
G1 F1061.9 X84.389 Y118.692 E17.33324
G0 F6000 X84.1 Y118.875
G1 F1111.1 X84.389 Y118.692 E17.34552
G1 F1103.4 X84.1 Y118.717 E17.35602
G1 F1182.3 X83.716 Y118.724 E17.36898
G1 F1200 X83.261 Y118.631 E17.38443
G1 X82.96 Y118.491 E17.39547
G1 X82.676 Y118.292 E17.407
G1 X82.388 Y117.981 E17.4211
G1 X81.206 Y115.446 E17.51413
G1 X81.209 Y118.241 E17.60709
G1 X81.072 Y118.655 E17.6216
G1 X80.901 Y118.948 E17.63288
G1 X80.689 Y119.2 E17.64383
G1 X80.359 Y119.476 E17.65814
G1 X79.984 Y119.617 E17.67147
G1 F1106 X79.579 Y119.723 E17.68658
G1 X80 Y119.779 E17.7019
G1 F1200 X81.055 Y119.72 E17.73705
G1 X82.105 Y119.549 E17.77243
G1 X83.128 Y119.267 E17.80772
G1 F1191.1 X84.1 Y118.875 E17.84284
G0 F6000 X86.834 Y116.874
G1 F1014.8 X87.229 Y116.563 E17.86262
G1 F1200 X87.473 Y116.304 E17.87445
G1 X88.095 Y115.486 E17.90863
G1 X88.634 Y114.586 E17.94352
G1 X89.088 Y113.61 E17.97932
G1 F1173.6 X89.171 Y113.333 E17.98916
G1 F1093.4 X89.238 Y113.066 E17.99921
G1 X89.063 Y113.269 E18.00899
G1 F1173.6 X88.792 Y113.543 E18.0221
G1 F1200 X88.406 Y113.797 E18.03747
G1 X88.071 Y113.918 E18.04931
G1 X87.756 Y113.969 E18.05993
G1 X87.335 Y113.953 E18.07394
G1 X84.715 Y113.003 E18.16663
G1 X86.678 Y114.963 E18.25889
G1 X86.788 Y115.155 E18.26625
G1 X86.951 Y115.613 E18.28242
G1 X86.992 Y116.093 E18.29845
G1 X86.941 Y116.421 E18.30949
G1 F1014.8 X86.834 Y116.874 E18.32779
G0 F6000 X87.962 Y115.396
G0 X88.112 Y115.145
G0 X89.238 Y113.066
G1 F1054.9 X89.3 Y112.899 E18.33453
G1 F1043.5 X89.385 Y112.612 E18.34598
G1 X89.519 Y112.049 E18.36812
G1 F1045.8 X89.632 Y111.483 E18.39015
G1 F1025.6 X89.73 Y110.523 E18.4277
G1 F952.4 X89.694 Y110.038 E18.44808
G1 F1019.1 X89.776 Y109.579 E18.46634
G1 F1197 X89.648 Y108.415 E18.50539
G1 F1200 X89.418 Y107.376 E18.54078
G1 X89.085 Y106.381 E18.57568
G1 F1159.4 X88.835 Y105.874 E18.59514
G1 F1111.1 X88.729 Y105.692 E18.6027
G1 F1148.3 X88.717 Y106.438 E18.62863
G1 F1200 X88.632 Y106.73 E18.63875
G1 X88.411 Y107.216 E18.65651
G1 X87.979 Y107.608 E18.67591
G1 X85.448 Y108.79 E18.76882
G1 X88.313 Y108.788 E18.86411
G1 X88.856 Y109.015 E18.88368
G1 X89.201 Y109.306 E18.89869
G1 X89.421 Y109.569 E18.9101
G1 F1021.3 X89.694 Y110.038 E18.93131
G0 F6000 X89.489 Y108.442
G0 X89.361 Y107.862
G0 X88.714 Y105.665
G1 F1030 X88.609 Y105.424 E18.94149
G1 F1039 X88.124 Y104.613 E18.97779
G1 F1050.3 X87.766 Y104.12 E19.00095
G1 F1043.5 X87.437 Y103.703 E19.02126
G1 F1014.8 X87.135 Y103.388 E19.03843
G0 F6000 X85.86 Y103.137
G0 X85.204 Y103.363
G0 X82.999 Y105.29
G1 F1200 X84.879 Y103.406 E19.12695
G1 X85.155 Y103.212 E19.13817
G1 X85.706 Y103.016 E19.15762
G1 X86.081 Y103.007 E19.1701
G1 X86.542 Y103.074 E19.18559
G1 F1182.3 X86.846 Y103.221 E19.19699
G1 F1081.1 X87.135 Y103.388 E19.20931
G1 X86.928 Y103.125 E19.22167
G1 F1182.3 X86.714 Y102.891 E19.23237
G1 F1200 X85.922 Y102.218 E19.26694
G1 X85.032 Y101.615 E19.3027
G1 X84.099 Y101.121 E19.33781
G1 X83.697 Y100.961 E19.3522
G1 F1145.6 X83.333 Y100.836 E19.36561
G1 F1039 X83.125 Y100.778 E19.37391
G1 F1083.5 X83.543 Y101.204 E19.39589
G1 F1200 X83.749 Y101.482 E19.4074
G1 X83.908 Y101.898 E19.42221
G1 X83.968 Y102.226 E19.4333
G1 X83.952 Y102.665 E19.44791
G1 X82.999 Y105.29 E19.5408
G0 F6000 X82.556 Y105.987
G0 X82.11 Y106.687
G1 F875.9 X81.804 Y107.173 E19.56697
G0 F6000 X80.862 Y107.245
G0 X79.326 Y107.043
G0 X80.04 Y107.264
G1 F1108.5 X79.779 Y107.137 E19.57742
G1 F1093.4 X79.442 Y106.854 E19.59348
G1 F1059.6 X79.189 Y106.348 E19.61479
G1 F1069 X79.206 Y106.654 E19.62623
G1 F1103.4 X79.108 Y107.066 E19.64155
G1 F1108.5 X79.011 Y107.264 E19.64949
G1 X80.04 Y107.264 E19.68654
G0 F6000 X79.326 Y107.043
G0 X79.189 Y106.348
G1 F1016.9 X79.15 Y106.165 E19.69388
G0 F6000 X78.972 Y105.355
G0 X78.79 Y104.547
G1 F1200 X78.788 Y101.754 E19.78677
G1 X78.921 Y101.347 E19.80102
G1 X79.094 Y101.047 E19.81253
G1 X79.306 Y100.796 E19.82346
G1 X79.578 Y100.57 E19.83522
G1 F995.9 X79.975 Y100.302 E19.85442
G1 F981.6 X79.581 Y100.241 E19.87063
G1 F1179.4 X78.942 Y100.276 E19.89229
G1 F1200 X77.893 Y100.451 E19.92766
G1 X76.868 Y100.734 E19.96303
G1 X75.893 Y101.123 E19.99794
G1 F1132.1 X75.451 Y101.384 E20.01604
G1 X75.9 Y101.288 E20.03223
G1 F1200 X76.28 Y101.276 E20.04487
G1 X76.731 Y101.367 E20.06018
G1 X77.035 Y101.507 E20.07131
G1 X77.324 Y101.708 E20.08302
G1 X77.607 Y102.014 E20.09688
G1 X78.79 Y104.547 E20.18986
G0 F6000 X77.455 Y102.07
G0 X77.103 Y101.718
G0 X76.487 Y101.43
G0 X75.69 Y101.457
G0 X74.232 Y102.384
G0 X73.615 Y102.888
G0 X73.245 Y103.415
G0 X73.137 Y104.14
G0 X73.363 Y104.796
G0 X75.987 Y107.444
G0 X76.686 Y107.89
G1 F874.3 X77.173 Y108.192 E20.21602
G0 F6000 X75.289 Y106.999
G1 F1200 X73.409 Y105.119 E20.30445
G1 X73.212 Y104.841 E20.31578
G1 X73.05 Y104.383 E20.33194
G1 X73.006 Y103.913 E20.34764
G1 X73.055 Y103.589 E20.35854
G1 F1014.8 X73.167 Y103.117 E20.37762
G1 X72.756 Y103.444 E20.39828
G1 F1200 X72.533 Y103.68 E20.40908
G1 X71.901 Y104.514 E20.44388
G1 X71.36 Y105.41 E20.47869
G1 X70.907 Y106.391 E20.51463
G1 X70.817 Y106.66 E20.52406
G1 F1126.8 X70.695 Y107.095 E20.54007
G1 X70.94 Y106.733 E20.55555
G1 F1200 X71.204 Y106.453 E20.56835
G1 X71.59 Y106.199 E20.58372
G1 X71.925 Y106.078 E20.59557
G1 X72.24 Y106.028 E20.60617
G1 X72.66 Y106.043 E20.62015
G1 X75.289 Y106.999 E20.7132
G0 F6000 X76.944 Y108.323
G0 X77.198 Y108.737
G0 X77.243 Y109.147
G0 X77.077 Y110.655
G0 X76.244 Y110.829
G1 F1036.7 X76.375 Y110.801 E20.71835
G0 F6000 X77.263 Y110.983
G1 F1106 X77.263 Y109.967 E20.75502
G1 X77.137 Y110.221 E20.76525
G1 F1086 X76.853 Y110.555 E20.78136
G1 F1048 X76.375 Y110.801 E20.80184
G1 F1057.3 X76.649 Y110.788 E20.81219
G1 F1095.9 X77.067 Y110.887 E20.82783
G1 F1106 X77.263 Y110.983 E20.83571
G0 F6000 X77.062 Y110.67
G0 X72.303 Y112.877
G0 X72.05 Y113.13
G0 X71.833 Y113.596
G0 X71.854 Y114.194
G0 X72.703 Y115.527
G0 X73.163 Y116.09
G0 X73.568 Y116.374
G0 X74.103 Y116.453
G0 X74.597 Y116.283
G0 X78.196 Y112.827
G1 F888.9 X77.933 Y113.247 E20.85796
G0 F6000 X78.502 Y112.911
G0 X78.94 Y112.763
G0 X80.652 Y112.969
G0 X80.801 Y113.621
G1 F1066.7 X80.815 Y113.234 E20.87245
G1 F1103.4 X80.887 Y112.929 E20.88379
G1 X80.983 Y112.733 E20.89168
G1 X79.966 Y112.734 E20.92847
G1 X80.196 Y112.847 E20.93774
G1 F1086 X80.551 Y113.141 E20.95468
G1 F1048 X80.801 Y113.621 E20.97529
G1 F1036.7 X80.829 Y113.752 E20.98044
G0 F6000 X80.652 Y112.969
G0 X82.877 Y117.697
G0 X83.13 Y117.95
G0 X83.596 Y118.167
G0 X84.194 Y118.146
G0 X85.527 Y117.297
G0 X86.09 Y116.837
G0 X86.374 Y116.432
G0 X86.453 Y115.897
G0 X86.283 Y115.403
G0 X82.823 Y111.804
G1 F895.5 X83.245 Y112.067 E21.00261
G0 F6000 X82.802 Y111.263
G0 X82.757 Y110.853
G0 X82.957 Y109.326
G0 X82.732 Y110.046
G1 F1108.5 X82.913 Y109.667 E21.01773
G1 X83.257 Y109.386 E21.03372
G1 F1076.2 X83.648 Y109.189 E21.04996
G1 F1069 X83.342 Y109.206 E21.0614
G1 F1103.4 X82.93 Y109.108 E21.07672
G1 F1108.5 X82.732 Y109.011 E21.08465
G1 X82.732 Y110.046 E21.12192
G0 F6000 X82.957 Y109.326
G0 X83.648 Y109.189
G1 F1016.9 X83.831 Y109.15 E21.12926
G0 F6000 X84.645 Y108.972
G0 X88.26 Y108.952
G0 X88.734 Y109.125
G0 X89.211 Y109.529
G0 X89.442 Y109.93
G0 X89.543 Y110.516
G0 X89.342 Y112.008
G0 X89.089 Y112.994
G0 X88.543 Y113.576
G0 X87.905 Y113.809
G0 X87.407 Y113.809
G0 X84.538 Y113.071
G0 X86.612 Y115.131
G0 X86.863 Y115.86
G0 X86.755 Y116.585
G0 X86.385 Y117.112
G0 X86.045 Y117.372
G0 X84.395 Y118.564
G0 X84.244 Y118.306
G1 F1200 X83.703 Y118.324 E21.14727
G1 X83.43 Y118.268 E21.15653
G1 X83.028 Y118.082 E21.17127
G1 F1156.6 X82.732 Y117.77 E21.18611
G1 F1078.7 X80.829 Y113.752 E21.35061
G1 X80.819 Y115.933 E21.43132
G1 F1156.6 X80.809 Y118.114 E21.50658
G1 F1200 X80.774 Y118.315 E21.51336
G1 X80.595 Y118.69 E21.52718
G1 X80.302 Y119.04 E21.54236
G1 X79.901 Y119.227 E21.55708
G1 X79.473 Y119.302 E21.57153
G1 X78.752 Y119.23 E21.59563
G1 X78.021 Y119.099 E21.62033
G1 X77.122 Y118.873 E21.65116
G1 X76.633 Y118.412 E21.67352
G1 X76.426 Y117.859 E21.69316
G1 F1159.4 X76.437 Y117.422 E21.7082
G1 F1083.5 X77.933 Y113.247 E21.87157
G1 X76.385 Y114.778 E21.95177
G1 F1159.4 X74.837 Y116.309 E22.02672
G1 F1200 X74.671 Y116.426 E22.03347
G1 X74.18 Y116.592 E22.05071
G1 X73.964 Y116.597 E22.0579
G1 X73.506 Y116.524 E22.07332
G1 X73.055 Y116.21 E22.0916
G1 X72.57 Y115.624 E22.1169
G1 X72.163 Y115.038 E22.14063
G1 X71.743 Y114.322 E22.16824
G1 X71.688 Y114.088 E22.17623
G1 X71.679 Y113.544 E22.19433
G1 X71.906 Y113.058 E22.21217
G1 X72.136 Y112.811 E22.2234
G1 X72.307 Y112.694 E22.23029
G1 F1156.6 X74.275 Y111.762 E22.30543
G1 F1078.7 X76.244 Y110.829 E22.38605
G1 X71.807 Y110.809 E22.55023
G1 F1137.4 X71.392 Y110.669 E22.5656
G1 F1167.9 X70.954 Y110.301 E22.58515
G1 F1191.1 X70.764 Y109.88 E22.60063
G1 F1200 X70.7 Y109.464 E22.61462
G1 X70.767 Y108.745 E22.63864
G1 X70.898 Y108.021 E22.66311
G1 X71.098 Y107.229 E22.69028
G1 X71.231 Y107.008 E22.69886
G1 X71.495 Y106.728 E22.71166
G1 X71.726 Y106.575 E22.72088
G1 F1170.7 X72.141 Y106.426 E22.73591
G1 F1113.7 X72.57 Y106.436 E22.75129
G1 F1036.7 X76.686 Y107.89 E22.91934
G1 X75.189 Y106.364 E23.00164
G1 F1140.1 X73.691 Y104.837 E23.07652
G1 F1200 X73.573 Y104.669 E23.08335
G1 X73.428 Y104.254 E23.09797
G1 X73.402 Y103.972 E23.10739
G1 X73.45 Y103.648 E23.11829
G1 X73.544 Y103.403 E23.12701
G1 X73.799 Y103.045 E23.14163
G1 X74.395 Y102.556 E23.16727
G1 X74.918 Y102.188 E23.18854
G1 X75.65 Y101.758 E23.21678
G1 X75.913 Y101.688 E23.22583
G1 X76.293 Y101.676 E23.23848
G1 X76.564 Y101.731 E23.24767
G1 X76.975 Y101.921 E23.26273
G1 F1140.1 X77.266 Y102.229 E23.27757
G1 F1036.7 X79.15 Y106.165 E23.44556
G1 X79.189 Y101.804 E23.61346
G1 F1140.1 X79.327 Y101.391 E23.62871
G1 F1200 X79.612 Y101.053 E23.64341
G1 X79.776 Y100.918 E23.65048
G1 X80.084 Y100.771 E23.66183
G1 X80.528 Y100.694 E23.67681
G1 X81.248 Y100.766 E23.70088
G1 X81.936 Y100.889 E23.72413
G1 X82.736 Y101.089 E23.75155
G1 X82.922 Y101.169 E23.75829
G1 X83.363 Y101.584 E23.77843
G1 X83.57 Y102.137 E23.79807
G1 F1142.9 X83.559 Y102.572 E23.81326
G1 F1041.2 X82.11 Y106.687 E23.9805
G1 F1030 X83.683 Y105.142 E24.06593
G1 F1103.4 X85.256 Y103.597 E24.14568
G1 F1170.7 X85.889 Y103.382 E24.16847
G1 F1200 X86.495 Y103.471 E24.18884
G1 X86.942 Y103.787 E24.20705
G1 X87.44 Y104.394 E24.23316
G1 X87.833 Y104.957 E24.256
G1 X88.257 Y105.679 E24.28385
G1 X88.312 Y105.912 E24.29181
G1 F1185.2 X88.321 Y106.45 E24.30993
G1 F1156.6 X88.079 Y106.977 E24.32994
G1 F1113.7 X87.764 Y107.267 E24.34529
G1 F1036.7 X83.831 Y109.15 E24.51316
G1 X88.196 Y109.189 E24.68121
G1 F1113.7 X88.607 Y109.33 E24.69679
G1 F1156.6 X89.042 Y109.695 E24.71638
G1 F1185.2 X89.232 Y110.117 E24.73197
G1 F1200 X89.296 Y110.531 E24.7459
G1 X89.23 Y111.248 E24.76985
G1 X89.104 Y111.958 E24.79383
G1 X88.868 Y112.879 E24.82545
G1 X88.501 Y113.268 E24.84324
G1 X88.27 Y113.421 E24.85246
G1 X87.851 Y113.572 E24.86727
G1 F1159.4 X87.423 Y113.559 E24.88201
G1 F1083.5 X83.245 Y112.067 E25.04543
G1 F1100.9 X86.409 Y115.261 E25.20842
G1 F1179.4 X86.572 Y115.742 E25.22561
G1 F1200 X86.597 Y116.03 E25.23522
G1 X86.545 Y116.358 E25.24627
G1 X86.446 Y116.606 E25.25515
G1 X86.212 Y116.945 E25.26885
G1 X85.604 Y117.441 E25.29495
G1 X85.04 Y117.832 E25.31777
G1 X84.244 Y118.306 E25.34858
G0 F6000 X84.395 Y118.564
G0 X83.084 Y119.111
G0 X82.171 Y119.365
G0 X79.579 Y119.723
G1 F1041.2 X79.4 Y119.721 E25.35545
G1 F1036.7 X78.944 Y119.685 E25.37306
G1 X78.63 Y119.643 E25.38525
G1 F1039 X77.898 Y119.515 E25.4138
G1 F1041.2 X77.146 Y119.317 E25.44361
G1 F1019.1 X76.882 Y119.224 E25.45457
G1 F1078.7 X76.454 Y118.792 E25.47707
G1 F1200 X76.248 Y118.518 E25.48847
G1 X76.088 Y118.098 E25.50342
G1 X76.028 Y117.774 E25.51438
G1 X76.043 Y117.333 E25.52906
G1 X76.998 Y114.712 E25.62184
G1 X75.032 Y116.679 E25.71434
G1 X74.843 Y116.788 E25.72159
G1 X74.288 Y116.983 E25.74116
G1 X73.901 Y116.992 E25.75403
G1 X73.453 Y116.92 E25.76913
G1 F1182.3 X73.164 Y116.78 E25.77997
G1 F1078.7 X72.873 Y116.619 E25.79227
G1 X73.078 Y116.881 E25.80458
G1 F1182.3 X73.281 Y117.103 E25.81474
G1 F1200 X74.077 Y117.778 E25.84945
G1 X74.97 Y118.382 E25.88531
G1 X75.899 Y118.88 E25.92037
G1 X76.297 Y119.038 E25.93461
G1 F1145.6 X76.661 Y119.163 E25.94802
G1 F1034.5 X76.882 Y119.224 E25.95686
G0 F6000 X75.054 Y118.245
G0 X74.808 Y118.079
G0 X72.873 Y116.619
G1 F1010.5 X72.558 Y116.293 E25.97477
G1 F1041.2 X72.232 Y115.881 E25.99491
G1 F1043.5 X71.93 Y115.467 E26.01451
G1 F1027.8 X71.388 Y114.572 E26.05514
G1 F1039 X71.354 Y114.503 E26.05809
G1 F1116.3 X71.288 Y114.1 E26.07269
G1 F1200 X71.272 Y113.598 E26.0894
G1 X71.37 Y113.26 E26.1011
G1 X71.564 Y112.842 E26.11643
