;FLAVOR:Marlin
;TIME:1998
;Filament used: 0.914637m
;Layer height: 0.2
;MINX:68.352
;MINY:98.334
;MINZ:0.2
;MAXX:151.648
;MAXY:124.932
;MAXZ:7.4
;TARGET_MACHINE.NAME:Creality Ender-3
;Generated with Cura_SteamEngine 5.7.0
M140 S50
M105
M190 S50
M104 S220
M105
M109 S220
M82 ;absolute extrusion mode
; Ender 3 Custom Start G-code
G92 E0 ; Reset Extruder
G28 ; Home all axes
G1 Z2.0 F3000 ; Move Z Axis up little to prevent scratching of Heat Bed
G1 X0.1 Y20 Z0.3 F5000.0 ; Move to start position
G1 X0.1 Y200.0 Z0.3 F1500.0 E15 ; Draw the first line
G1 X0.4 Y200.0 Z0.3 F5000.0 ; Move to side a little
G1 X0.4 Y20 Z0.3 F1500.0 E30 ; Draw the second line
G92 E0 ; Reset Extruder
G1 Z2.0 F3000 ; Move Z Axis up little to prevent scratching of Heat Bed
G1 X5 Y20 Z0.3 F5000.0 ; Move over to prevent blob squish
G92 E0
G92 E0
G1 F2700 E-5
;LAYER_COUNT:37
;LAYER:0
M107
G0 F6000 X96.222 Y116.121 Z0.2
;TYPE:SKIRT
G1 F2700 E0
G1 F1200 X97.251 Y115.832 E0.03555
G1 X98.28 Y116.121 E0.0711
G1 X99.029 Y116.91 E0.10728
G1 X99.315 Y117.893 E0.14133
G1 X99.026 Y118.926 E0.17701
G1 X98.282 Y119.67 E0.212
G1 X97.249 Y119.959 E0.24768
G1 X96.266 Y119.671 E0.28175
G1 X95.475 Y118.88 E0.31896
G1 X95.185 Y117.895 E0.35311
G1 X95.473 Y116.91 E0.38724
G1 X96.222 Y116.121 E0.42342
G0 F6000 X96.436 Y116.476
G1 F1200 X97.251 Y116.247 E0.45158
G1 X98.066 Y116.476 E0.47974
G1 X98.671 Y117.114 E0.50898
G1 X98.899 Y117.895 E0.53604
G1 X98.669 Y118.717 E0.56443
G1 X98.073 Y119.313 E0.59247
G1 X97.252 Y119.543 E0.62082
G1 X96.477 Y119.316 E0.64768
G1 X95.83 Y118.669 E0.67812
G1 X95.602 Y117.894 E0.70499
G1 X95.83 Y117.114 E0.73201
G1 X96.436 Y116.476 E0.76128
G0 F6000 X96.649 Y116.832
G1 F1200 X97.251 Y116.663 E0.78208
G1 X97.853 Y116.832 E0.80287
G1 X98.315 Y117.319 E0.8252
G1 X98.483 Y117.898 E0.84525
G1 X98.312 Y118.508 E0.86632
G1 X97.864 Y118.956 E0.8874
G1 X97.255 Y119.127 E0.90843
G1 X96.688 Y118.961 E0.92808
G1 X96.184 Y118.457 E0.95179
G1 X96.019 Y117.895 E0.97127
G1 X96.188 Y117.318 E0.99127
G1 X96.649 Y116.832 E1.01355
G0 F6000 X96.865 Y117.187
G1 F1200 X97.251 Y117.078 E1.02689
G1 X97.637 Y117.187 E1.04023
G1 X97.958 Y117.524 E1.05571
G1 X98.067 Y117.9 E1.06873
G1 X97.956 Y118.298 E1.08247
G1 X97.654 Y118.6 E1.09668
G1 X97.258 Y118.711 E1.11036
G1 X96.898 Y118.605 E1.12284
G1 X96.539 Y118.246 E1.13973
G1 X96.436 Y117.895 E1.15189
G1 X96.544 Y117.524 E1.16474
G1 X96.865 Y117.187 E1.18022
G0 F6000 X97.079 Y117.542
G1 F1200 X97.251 Y117.494 E1.18616
G1 X97.423 Y117.542 E1.1921
G1 X97.601 Y117.73 E1.20071
G1 X97.651 Y117.903 E1.2067
G1 X97.6 Y118.088 E1.21309
G1 X97.444 Y118.244 E1.22042
G1 X97.261 Y118.295 E1.22674
G1 X97.109 Y118.25 E1.23201
G1 X96.894 Y118.035 E1.24213
G1 X96.853 Y117.894 E1.24701
G1 X96.901 Y117.73 E1.25269
G1 X97.079 Y117.542 E1.26131
G1 F2700 E-3.73869
G0 F6000 X92.76 Y119.043
G1 F2700 E1.26131
G1 F1200 X92.471 Y120.076 E1.29698
G1 X91.727 Y120.82 E1.33198
G1 X90.469 Y121.172 E1.37543
G1 X90.365 Y121.242 E1.3796
G1 X90.323 Y121.359 E1.38373
G1 X90.331 Y121.422 E1.38584
G1 X90.67 Y122.556 E1.42521
G1 X90.356 Y123.749 E1.46624
G1 X89.516 Y124.598 E1.50596
G1 X88.343 Y124.914 E1.54637
G1 X87.202 Y124.564 E1.58606
G1 X86.249 Y123.599 E1.63117
G1 X85.912 Y122.452 E1.67093
G1 X86.239 Y121.332 E1.70974
G1 X87.089 Y120.437 E1.75079
G1 X88.261 Y120.108 E1.79128
G1 X88.464 Y120.165 E1.79829
G1 X88.589 Y120.16 E1.80246
G1 X88.66 Y120.114 E1.80527
G1 X88.797 Y119.976 E1.81174
G1 X88.853 Y119.864 E1.8159
G1 X88.847 Y119.778 E1.81877
G1 X88.631 Y119.044 E1.84422
G1 X88.918 Y118.06 E1.87831
G1 X89.667 Y117.271 E1.91449
G1 X90.696 Y116.982 E1.95004
G1 X91.725 Y117.271 E1.98559
G1 X92.474 Y118.06 E2.02177
G1 X92.76 Y119.043 E2.05582
G0 F6000 X92.344 Y119.045
G1 F1200 X92.114 Y119.867 E2.08421
G1 X91.518 Y120.463 E2.11225
G1 X90.361 Y120.787 E2.15221
G1 X90.165 Y120.883 E2.15947
G1 X90.017 Y121.043 E2.16672
G1 X89.935 Y121.245 E2.17397
G1 X89.948 Y121.537 E2.18369
G1 X90.255 Y122.562 E2.21928
G1 X89.996 Y123.543 E2.25303
G1 X89.307 Y124.24 E2.28562
G1 X88.351 Y124.498 E2.31856
G1 X87.416 Y124.21 E2.3511
G1 X86.604 Y123.39 E2.38948
G1 X86.329 Y122.451 E2.42202
G1 X86.596 Y121.536 E2.45372
G1 X87.303 Y120.792 E2.48786
G1 X88.26 Y120.523 E2.52092
G1 X88.355 Y120.55 E2.52421
G1 X88.572 Y120.571 E2.53146
G1 X88.783 Y120.512 E2.53875
G1 X88.944 Y120.396 E2.54535
G1 X89.081 Y120.258 E2.55182
G1 X89.204 Y120.078 E2.55907
G1 X89.254 Y119.865 E2.56634
G1 X89.23 Y119.665 E2.57304
G1 X89.047 Y119.045 E2.59454
G1 X89.275 Y118.264 E2.6216
G1 X89.881 Y117.626 E2.65087
G1 X90.696 Y117.397 E2.67903
G1 X91.511 Y117.626 E2.70718
G1 X92.116 Y118.264 E2.73643
G1 X92.344 Y119.045 E2.76349
G0 F6000 X91.928 Y119.048
G1 F1200 X91.758 Y119.657 E2.78452
G1 X91.309 Y120.106 E2.80564
G1 X90.253 Y120.402 E2.84211
G1 X89.995 Y120.516 E2.8515
G1 X89.779 Y120.697 E2.86087
G1 X89.622 Y120.931 E2.87024
G1 X89.537 Y121.2 E2.87962
G1 X89.53 Y121.482 E2.88901
G1 X89.565 Y121.652 E2.89478
G1 X89.839 Y122.568 E2.92658
G1 X89.636 Y123.339 E2.9531
G1 X89.101 Y123.881 E2.97843
G1 X88.357 Y124.081 E3.00405
G1 X87.629 Y123.858 E3.02938
G1 X86.96 Y123.181 E3.06103
G1 X86.746 Y122.451 E3.08633
G1 X86.953 Y121.742 E3.1109
G1 X87.517 Y121.148 E3.13814
G1 X88.265 Y120.937 E3.16399
G1 X88.526 Y120.973 E3.17276
G1 X88.805 Y120.931 E3.18214
G1 X89.061 Y120.812 E3.19153
G1 X89.228 Y120.678 E3.19865
G1 X89.365 Y120.54 E3.20512
G1 X89.533 Y120.313 E3.21451
G1 X89.632 Y120.049 E3.22389
G1 X89.653 Y119.768 E3.23326
G1 X89.614 Y119.552 E3.24056
G1 X89.464 Y119.044 E3.25818
G1 X89.633 Y118.468 E3.27814
G1 X90.094 Y117.982 E3.30042
G1 X90.696 Y117.813 E3.32122
G1 X91.298 Y117.982 E3.34202
G1 X91.76 Y118.469 E3.36434
G1 X91.928 Y119.048 E3.3844
G0 F6000 X91.512 Y119.05
G1 F1200 X91.401 Y119.448 E3.39814
G1 X91.099 Y119.75 E3.41234
G1 X90.145 Y120.017 E3.44529
G1 X90.026 Y120.067 E3.44959
G1 X90.052 Y119.925 E3.45439
G1 X89.998 Y119.439 E3.47065
G1 X89.881 Y119.043 E3.48439
G1 X89.989 Y118.674 E3.49717
G1 X90.31 Y118.337 E3.51265
G1 X90.696 Y118.228 E3.52599
G1 X91.082 Y118.337 E3.53933
G1 X91.403 Y118.674 E3.55481
G1 X91.512 Y119.05 E3.56783
G0 F6000 X91.096 Y119.053
G1 F1200 X91.045 Y119.238 E3.57422
G1 X90.889 Y119.394 E3.58155
G1 X90.417 Y119.526 E3.59786
G1 X90.381 Y119.326 E3.60461
G1 X90.298 Y119.043 E3.61442
G1 X90.346 Y118.88 E3.62008
G1 X90.524 Y118.692 E3.62869
G1 X90.696 Y118.644 E3.63463
G1 X90.868 Y118.692 E3.64056
G1 X91.046 Y118.88 E3.64918
G1 X91.096 Y119.053 E3.65517
G1 F2700 E-1.34483
G0 F6000 X89.13 Y121.229
G1 F2700 E3.65517
G1 F1200 X89.136 Y121.557 E3.66608
G1 X89.182 Y121.766 E3.67319
G1 X89.424 Y122.574 E3.70125
G1 X89.276 Y123.134 E3.72051
G1 X88.891 Y123.523 E3.73872
G1 X88.364 Y123.665 E3.75687
G1 X87.844 Y123.506 E3.77496
G1 X87.314 Y122.97 E3.80003
G1 X87.162 Y122.452 E3.81798
G1 X87.31 Y121.947 E3.83548
G1 X87.731 Y121.503 E3.85584
G1 X88.294 Y121.345 E3.87528
G1 X88.468 Y121.372 E3.88114
G1 X88.801 Y121.344 E3.89226
G1 X89.118 Y121.238 E3.90337
G1 X89.13 Y121.229 E3.90387
G0 F6000 X88.769 Y121.755
G1 F1200 X88.799 Y121.881 E3.90818
G1 X89.008 Y122.58 E3.93245
G1 X88.916 Y122.93 E3.94448
G1 X88.684 Y123.165 E3.95547
G1 X88.372 Y123.249 E3.96621
G1 X88.056 Y123.152 E3.97721
G1 X87.67 Y122.762 E3.99546
G1 X87.579 Y122.452 E4.0062
G1 X87.667 Y122.151 E4.01663
G1 X87.945 Y121.858 E4.03007
G1 X88.316 Y121.754 E4.04288
G1 X88.403 Y121.769 E4.04582
G1 X88.769 Y121.755 E4.058
G0 F6000 X88.465 Y122.163
G1 F1200 X88.593 Y122.59 E4.07283
G1 X88.558 Y122.723 E4.0774
G1 X88.474 Y122.808 E4.08138
G1 X88.38 Y122.833 E4.08461
G1 X88.271 Y122.8 E4.0884
G1 X88.025 Y122.551 E4.10004
G1 X87.996 Y122.451 E4.1035
G1 X88.024 Y122.357 E4.10677
G1 X88.16 Y122.213 E4.11335
G1 X88.332 Y122.165 E4.11929
G1 X88.465 Y122.163 E4.12372
G1 F2700 E-0.87628
G0 F6000 X101.969 Y117.992
G1 F2700 E4.12372
G1 F1200 X102.257 Y117.007 E4.15785
G1 X103.006 Y116.218 E4.19403
G1 X104.035 Y115.929 E4.22958
G1 X105.064 Y116.218 E4.26513
G1 X105.813 Y117.007 E4.30131
G1 X106.099 Y117.99 E4.33537
G1 X105.81 Y119.023 E4.37104
G1 X105.066 Y119.767 E4.40604
G1 X104.033 Y120.056 E4.44171
G1 X103.05 Y119.768 E4.47578
G1 X102.259 Y118.977 E4.51299
G1 X101.969 Y117.992 E4.54714
G0 F6000 X102.386 Y117.991
G1 F1200 X102.614 Y117.211 E4.57417
G1 X103.22 Y116.573 E4.60344
G1 X104.035 Y116.344 E4.63159
G1 X104.85 Y116.573 E4.65975
G1 X105.455 Y117.211 E4.68899
G1 X105.683 Y117.992 E4.71605
G1 X105.453 Y118.814 E4.74444
G1 X104.857 Y119.41 E4.77248
G1 X104.036 Y119.64 E4.80084
G1 X103.261 Y119.413 E4.8277
G1 X102.614 Y118.766 E4.85813
G1 X102.386 Y117.991 E4.885
G0 F6000 X102.803 Y117.992
G1 F1200 X102.972 Y117.415 E4.90499
G1 X103.433 Y116.929 E4.92727
G1 X104.035 Y116.76 E4.94807
G1 X104.637 Y116.929 E4.96887
G1 X105.099 Y117.416 E4.99119
G1 X105.267 Y117.995 E5.01125
G1 X105.096 Y118.605 E5.03232
G1 X104.648 Y119.053 E5.05339
G1 X104.039 Y119.224 E5.07443
G1 X103.472 Y119.058 E5.09408
G1 X102.968 Y118.554 E5.11779
G1 X102.803 Y117.992 E5.13727
G0 F6000 X103.22 Y117.992
G1 F1200 X103.329 Y117.62 E5.15016
G1 X103.649 Y117.284 E5.16559
G1 X104.035 Y117.175 E5.17893
G1 X104.421 Y117.284 E5.19227
G1 X104.742 Y117.621 E5.20775
G1 X104.851 Y117.997 E5.22077
G1 X104.74 Y118.395 E5.23452
G1 X104.438 Y118.697 E5.24872
G1 X104.042 Y118.808 E5.2624
G1 X103.682 Y118.702 E5.27488
G1 X103.323 Y118.343 E5.29177
G1 X103.22 Y117.992 E5.30393
G0 F6000 X103.637 Y117.991
G1 F1200 X103.685 Y117.827 E5.30962
G1 X103.863 Y117.639 E5.31823
G1 X104.035 Y117.591 E5.32417
G1 X104.207 Y117.639 E5.33011
G1 X104.385 Y117.827 E5.33872
G1 X104.435 Y118 E5.34471
G1 X104.384 Y118.185 E5.35109
G1 X104.228 Y118.341 E5.35843
G1 X104.045 Y118.392 E5.36475
G1 X103.893 Y118.347 E5.37002
G1 X103.678 Y118.132 E5.38013
G1 X103.637 Y117.991 E5.38502
G1 F2700 E0.38502
G0 F6000 X108.292 Y118.523
G1 F2700 E5.38502
G1 F1200 X108.58 Y117.538 E5.41915
G1 X109.329 Y116.749 E5.45533
G1 X110.358 Y116.46 E5.49088
G1 X111.387 Y116.749 E5.52643
G1 X112.025 Y117.421 E5.55725
G1 X112.135 Y117.48 E5.5614
G1 X112.217 Y117.477 E5.56413
G1 X112.403 Y117.432 E5.5705
G1 X112.509 Y117.367 E5.57463
G1 X112.548 Y117.293 E5.57741
G1 X112.647 Y116.948 E5.58935
G1 X113.397 Y116.159 E5.62556
G1 X114.426 Y115.87 E5.66111
G1 X115.456 Y116.159 E5.69669
G1 X115.97 Y116.7 E5.72151
G1 X116.08 Y116.759 E5.72566
G1 X116.204 Y116.741 E5.72983
G1 X116.26 Y116.7 E5.73214
G1 X116.753 Y116.181 E5.75594
G1 X117.782 Y115.892 E5.79149
G1 X118.811 Y116.181 E5.82704
G1 X119.56 Y116.97 E5.86323
G1 X119.65 Y117.284 E5.87409
G1 X119.72 Y117.387 E5.87823
G1 X119.842 Y117.429 E5.88252
G1 X120.09 Y117.429 E5.89077
G1 X120.209 Y117.39 E5.89494
G1 X120.282 Y117.285 E5.89919
G1 X120.47 Y116.638 E5.9216
G1 X121.219 Y115.849 E5.95778
G1 X122.248 Y115.56 E5.99333
G1 X123.277 Y115.849 E6.02888
G1 X124.026 Y116.638 E6.06506
G1 X124.312 Y117.621 E6.09912
G1 X124.023 Y118.654 E6.13479
G1 X123.279 Y119.398 E6.16979
G1 X122.246 Y119.687 E6.20546
G1 X121.263 Y119.399 E6.23953
G1 X120.472 Y118.608 E6.27674
G1 X120.381 Y118.299 E6.28745
G1 X120.31 Y118.197 E6.29159
G1 X120.187 Y118.156 E6.2959
G1 X119.939 Y118.158 E6.30415
G1 X119.821 Y118.198 E6.30829
G1 X119.748 Y118.304 E6.31257
G1 X119.557 Y118.986 E6.33613
G1 X118.813 Y119.73 E6.37112
G1 X117.78 Y120.019 E6.4068
G1 X116.798 Y119.731 E6.44084
G1 X116.257 Y119.192 E6.46624
G1 X116.146 Y119.136 E6.47037
G1 X115.975 Y119.192 E6.47636
G1 X115.458 Y119.707 E6.50063
G1 X114.424 Y119.997 E6.53635
G1 X113.442 Y119.709 E6.57038
G1 X112.627 Y118.895 E6.6087
G1 X112.516 Y118.839 E6.61283
G1 X112.393 Y118.86 E6.61698
G1 X112.293 Y118.983 E6.62225
G1 X112.134 Y119.553 E6.64194
G1 X111.388 Y120.298 E6.677
G1 X110.356 Y120.587 E6.71265
G1 X109.373 Y120.299 E6.74672
G1 X108.582 Y119.508 E6.78392
G1 X108.292 Y118.523 E6.81807
G0 F6000 X108.709 Y118.522
G1 F1200 X108.937 Y117.742 E6.8451
G1 X109.543 Y117.104 E6.87437
G1 X110.358 Y116.875 E6.90253
G1 X111.173 Y117.104 E6.93068
G1 X111.735 Y117.696 E6.95783
G1 X111.911 Y117.824 E6.96507
G1 X112.122 Y117.881 E6.97234
G1 X112.311 Y117.866 E6.97865
G1 X112.497 Y117.821 E6.98501
G1 X112.696 Y117.732 E6.99226
G1 X112.85 Y117.578 E6.9995
G1 X112.933 Y117.404 E7.00592
G1 X113.006 Y117.151 E7.01467
G1 X113.611 Y116.514 E7.04389
G1 X114.426 Y116.285 E7.07205
G1 X115.243 Y116.515 E7.10028
G1 X115.68 Y116.975 E7.12138
G1 X115.857 Y117.103 E7.12865
G1 X116.067 Y117.16 E7.13589
G1 X116.284 Y117.138 E7.14314
G1 X116.55 Y116.975 E7.15352
G1 X116.967 Y116.536 E7.17366
G1 X117.782 Y116.307 E7.20181
G1 X118.597 Y116.536 E7.22997
G1 X119.201 Y117.173 E7.25917
G1 X119.265 Y117.395 E7.26685
G1 X119.363 Y117.59 E7.27411
G1 X119.523 Y117.737 E7.28134
G1 X119.705 Y117.81 E7.28786
G1 X119.537 Y117.915 E7.29445
G1 X119.405 Y118.089 E7.30171
G1 X119.363 Y118.196 E7.30553
G1 X119.2 Y118.777 E7.3256
G1 X118.604 Y119.373 E7.35364
G1 X117.783 Y119.603 E7.382
G1 X117.009 Y119.376 E7.40882
G1 X116.54 Y118.909 E7.43084
G1 X116.36 Y118.786 E7.43809
G1 X116.147 Y118.735 E7.44537
G1 X115.931 Y118.763 E7.45262
G1 X115.693 Y118.909 E7.4619
G1 X115.25 Y119.35 E7.48269
G1 X114.427 Y119.581 E7.51113
G1 X113.653 Y119.354 E7.53795
G1 X112.91 Y118.612 E7.57288
G1 X112.73 Y118.489 E7.58013
G1 X112.518 Y118.438 E7.58738
G1 X112.302 Y118.466 E7.59463
G1 X112.11 Y118.57 E7.60189
G1 X111.968 Y118.735 E7.60913
G1 X111.908 Y118.876 E7.61423
G1 X111.778 Y119.343 E7.63035
G1 X111.179 Y119.941 E7.6585
G1 X110.359 Y120.171 E7.68683
G1 X109.584 Y119.944 E7.71369
G1 X108.937 Y119.297 E7.74412
G1 X108.709 Y118.522 E7.77099
G0 F6000 X109.126 Y118.523
G1 F1200 X109.295 Y117.946 E7.79098
G1 X109.756 Y117.46 E7.81326
G1 X110.358 Y117.291 E7.83406
G1 X110.958 Y117.459 E7.85478
G1 X111.445 Y117.972 E7.87831
G1 X111.666 Y118.147 E7.88769
G1 X111.888 Y118.237 E7.89565
G1 X111.694 Y118.426 E7.90466
G1 X111.523 Y118.768 E7.91738
G1 X111.421 Y119.134 E7.93002
G1 X110.97 Y119.585 E7.95123
G1 X110.362 Y119.755 E7.97223
G1 X109.795 Y119.589 E7.99188
G1 X109.291 Y119.085 E8.01559
G1 X109.126 Y118.523 E8.03507
G0 F6000 X109.543 Y118.523
G1 F1200 X109.651 Y118.152 E8.04792
G1 X109.972 Y117.815 E8.0634
G1 X110.358 Y117.706 E8.07674
G1 X110.745 Y117.815 E8.09011
G1 X111.155 Y118.247 E8.10992
G1 X111.277 Y118.348 E8.11519
G1 X111.221 Y118.438 E8.11871
G1 X111.138 Y118.661 E8.12663
G1 X111.064 Y118.925 E8.13575
G1 X110.761 Y119.228 E8.15
G1 X110.365 Y119.339 E8.16368
G1 X110.005 Y119.233 E8.17616
G1 X109.646 Y118.874 E8.19305
G1 X109.543 Y118.523 E8.20521
G0 F6000 X109.96 Y118.522
G1 F1200 X110.008 Y118.358 E8.2109
G1 X110.186 Y118.17 E8.21951
G1 X110.358 Y118.122 E8.22545
G1 X110.531 Y118.17 E8.23142
G1 X110.793 Y118.446 E8.24408
G1 X110.752 Y118.553 E8.24789
G1 X110.706 Y118.717 E8.25355
G1 X110.552 Y118.871 E8.2608
G1 X110.368 Y118.923 E8.26715
G1 X110.216 Y118.878 E8.27243
G1 X110.001 Y118.663 E8.28254
G1 X109.96 Y118.522 E8.28742
G1 F2700 E3.28742
G0 F6000 X112.838 Y118.112
G1 F2700 E8.28742
G1 F1200 X112.853 Y118.106 E8.28796
G1 X113.076 Y117.932 E8.29737
G1 X113.241 Y117.703 E8.30676
G1 X113.317 Y117.514 E8.31353
G1 X113.362 Y117.357 E8.31896
G1 X113.825 Y116.869 E8.34134
G1 X114.426 Y116.701 E8.36209
G1 X115.028 Y116.87 E8.38289
G1 X115.39 Y117.251 E8.40037
G1 X115.611 Y117.426 E8.40975
G1 X115.873 Y117.532 E8.41915
G1 X116.153 Y117.561 E8.42851
G1 X116.431 Y117.511 E8.4379
G1 X116.683 Y117.385 E8.44727
G1 X116.84 Y117.251 E8.45414
G1 X117.182 Y116.891 E8.47066
G1 X117.782 Y116.723 E8.49138
G1 X118.384 Y116.892 E8.51218
G1 X118.844 Y117.377 E8.53441
G1 X118.881 Y117.505 E8.53884
G1 X118.996 Y117.763 E8.54823
G1 X119.082 Y117.864 E8.55265
G1 X119.032 Y117.941 E8.5557
G1 X118.978 Y118.088 E8.56091
G1 X118.844 Y118.567 E8.57745
G1 X118.395 Y119.016 E8.59857
G1 X117.786 Y119.187 E8.61961
G1 X117.218 Y119.02 E8.6393
G1 X116.822 Y118.626 E8.65788
G1 X116.596 Y118.457 E8.66727
G1 X116.332 Y118.358 E8.67665
G1 X116.05 Y118.336 E8.68605
G1 X115.774 Y118.394 E8.69543
G1 X115.525 Y118.527 E8.70482
G1 X115.41 Y118.626 E8.70987
G1 X115.041 Y118.993 E8.72718
G1 X114.43 Y119.165 E8.74829
G1 X113.864 Y118.999 E8.76791
G1 X113.193 Y118.329 E8.79945
G1 X112.967 Y118.16 E8.80883
G1 X112.838 Y118.112 E8.81341
